!!!!SEGMENT: pl-wn--mus-iii-66-274_zelenski-wladyslaw--goplana-potpourii-z-motywow-opery.krn
!!!cenid: 18xx:3779
!!!COM: Żeleński, Władysław
!!!COM-rismID: pe41024455
!!!CDT:
!!!CNT:
!!!OTL: Goplana – potpourii z motywów opery
!!!PDT:
!!!AGN:
!!!SMS-siglum: PL-Wn
!!!SMS-shelfmark: Mus.III.66.274
!!!SMS-shelfwork: W
!!!SMS-variant:
!!!SMS-altvar:
!!!NIFC-rismSourceID:
!!!NIFC-islandoraID:
!!!URL-pdf-islandora:
!!!URL-scan: https://polona.pl/item/goplana-potpourris-z-motywow-opery-na-fortepian,Njk4OTY2NjU/0/#info:metadata @EN{Scan on Polona} @PL{Skany w portalu Polona}
!!!ONB-nifc:
!!!AIN: 2 piano
!!!key:
**kern	**dynam	**kern	**text	**dynam
*part2	*part2	*part1	*part1	*part1
*staff2	*	*staff1	*staff1	*
*I"Pianoforte.	*	*I"Pianoforte.	*	*
*I'pf	*	*I'pf	*	*
*ICklav	*	*ICklav	*	*
*Ipiano	*	*Ipiano	*	*
*clefF4	*	*clefG2	*	*
*k[b-e-]	*	*k[b-e-]	*	*
*G:	*	*G:	*	*
*M3/4	*	*M3/4	*	*
=1	=1	=1	=1	=1
*Xtuplet	*	*Xtuplet	*	*
!	!	!LO:TX:a:B:t=Tempo di Valse, ma moderato.	!	!
!	!	!	!	!LO:DY:b
12FF/L	.	4ryy	.	f
12C/	.	.	.	.
12F/J	.	.	.	.
!	!	!LO:TX:t=P:problem= crescendo przechodzi z lewej ręki do prawej	!	!
!	!	!	!	!LO:HP:b
12A/L	.	4ryy	.	<
12c/	.	.	.	.
12e->\J	.	.	.	.
4ryy	.	12f/L	.	.
.	.	12a/	.	.
.	.	12cc/J	.	.
=2	=2	=2	=2	=2
2.ryy	.	12ee-\L	.	.
.	.	12ff\	.	.
.	.	12aa\J	.	.
*	*	*8va	*	*
!	!	!LO:TX:b:i:t=quasi ad libitum	!	!
.	.	12ccc\L	.	.
.	.	12eee-\	.	.
.	.	12fff\J	.	.
.	.	8aaa\L	.	.
.	.	8cccc\J	.	[[
=3	=3	=3	=3	=3
2.ryy	.	8eeee-\L	.	.
.	.	8dddd'\	.	.
.	.	8cccc'\	.	.
.	.	8bbb-'\	.	.
.	.	8aaa'\	.	.
.	.	8ggg'\J	.	.
=4	=4	=4	=4	=4
2.ryy	.	8fff'\L	.	.
.	.	8eee-'\	.	.
.	.	8ddd'\	.	.
.	.	8ccc'\	.	.
*	*	*X8va	*	*
.	.	8bb-'\	.	.
.	.	8aa'\J	.	.
=5	=5	=5	=5	=5
2.ryy	.	8gg'\L	.	.
.	.	8ff'\	.	.
.	.	8ee-'\	.	.
!	!	!	!	!LO:HP:b
.	.	8cc'\	.	>
.	.	8a'\	.	.
.	.	8aa'\J	.	.
!!LO:LB:g=original		!		!	!
=6	=6	=6	=6	=6
2.ryy	.	8gg'\L	.	.
.	.	8ff'\	.	.
.	.	8ee-'\	.	.
.	.	8cc'\	.	.
.	.	8a'\	.	.
.	.	8g'\J	.	]]
=7	=7	=7	=7	=7
2.ryy	.	4f'/	.	.
.	.	4r	.	.
.	.	4r	.	.
=8	=8	=8	=8	=8
!	!	!	!	!LO:DY:b
4FF/ 4E-	.	4B-/ 4e- 4g	.	p
!	!	!LO:TX:b:i:t=riten.	!	!
4r	.	4r	.	.
4r	.	4r	.	.
=9	=9	=9	=9	=9
*	*	*^	*	*
4FF/ 4E-	.	[2.f;/	4A\ 4c	.	.
4r	.	.	4r	.	.
4r	.	.	4r	.	.
*	*	*v	*v	*	*
=10	=10	=10	=10	=10
!	!	!LO:TX:b:i:t=a tempo	!	!LO:DY:b
!LO:TX:b:i:t=dolce e cantabile	!	!LO:TX:a:t=(Akt pierwszy Arya Goplany.)	!	!
!	!	!LO:TX:t=P:problem= tekst nad zapisem nutowym	!	!
4BB-/	.	(>2.f/]	W le-	p
4F\ 4B- 4d	.	.	.	.
4F\ 4B- 4d	.	.	.	.
=11	=11	=11	=11	=11
4BB-/	.	2g/	-śnej	.
4G\ 4B- 4d	.	.	.	.
4E-\ 4B- 4c	.	4b-\)	u-	.
=12	=12	=12	=12	=12
4BB-/	.	[2.dd\	-stro-	.
4F\ 4B- 4d	.	.	.	.
4F\ 4B- 4d	.	.	.	.
=13	=13	=13	=13	=13
4BB-/	.	4dd\]	-ni	.
4F\ 4B- 4d	.	(4b-\	nad	.
4F\ 4B- 4d	.	4dd\	.	.
!!LO:LB:g=original	!	!	!
=14	=14	=14	=14	=14
4BB-/	.	(2ff\)	brze-	.
4F\ 4B- 4d	.	.	.	.
4F\ 4B- 4d	.	4gg\	.	.
=15	=15	=15	=15	=15
4BB-/	.	4gg\)	.	.
4F\ 4B- 4d	.	(4ff\	-giem	.
4F\ 4B- 4d	.	4b-\	je-	.
=16	=16	=16	=16	=16
!	!	!	!	!LO:HP:b
4BB-/	.	[2.dd\)	-zio-	<
4F\ 4B- 4d	.	.	.	.
4F\ 4B- 4d	.	.	.	.
=17	=17	=17	=17	=17
4BB-/	.	2dd\]	-ra	.
4F\ 4B- 4d	.	.	.	.
4F\ 4B- 4d	.	(4ff\	.	[[
=18	=18	=18	=18	=18
!	!	!LO:TX:b:i:t=espress.	!	!
4E-\	.	[2.aa\)	.	.
4B-\ 4c	.	.	.	.
4B-\ 4c	.	.	.	.
=19	=19	=19	=19	=19
4C/	.	4aa\]	.	.
4B-\ 4c	.	(4ff\	.	.
4B-\ 4c	.	4dd\	.	.
=20	=20	=20	=20	=20
*	*	*^	*	*
4E-\	.	([2.ff/)	4r	.	.
4B-\ 4c	.	.	4g-X\	.	.
4B-\ 4c	.	.	4g-\	.	.
=21	=21	=21	=21	=21	=21
4C/	.	4ff/]	4r	.	.
4B-\ 4c	.	4ee-/	4g-X\	.	.
4B-\ 4c	.	4dd/)	4g-\	.	.
=22	=22	=22	=22	=22	=22
4E-\	.	(2.cc/	4r	.	.
4B-\ 4c	.	.	4gn\	.	.
4B-\ 4c	.	.	4g\	.	.
!!LO:LB:g=original	!	!	!	!
!	!	!	!	!	!LO:HP:b
=23	=23	=23	=23	=23	=23
!	!	!	!	!	!LO:HP:b
4C/	.	2g/)	4r	.	<
4B-\ 4c	.	.	4e-\	.	.
4B-\ 4c	.	(4ee-/	4g\	.	.
=24	=24	=24	=24	=24	=24
4FF/	.	2.dd/	4r	.	.
4c\ 4e-	.	.	4a\	.	[
4B-\ 4e-	.	.	4g\	.	.
=25	=25	=25	=25	=25	=25
!	!	!	!	!	!LO:HP:b
4FF/	.	2cc#X/	4r	.	>
4F\ 4A	.	.	4f\	.	.
4F\ 4A	.	4dd/)	4e-\	.	.
=26	=26	=26	=26	=26	=26
!	!	!	!	!	!LO:HP:b
!	!	!	!	!	!LO:DY:b
4BB-/	.	[2.f/	4d\	.	] p
4F\ 4B- 4d	.	.	2ryy	.	.
4F\ 4B- 4d	.	.	.	.	.
*	*	*v	*v	*	*
=27	=27	=27	=27	=27
4BB-/	.	4f/]	.	.
4G\ 4B- 4e-	.	(4g/	.	.
4E-\ 4B- 4c	.	4b-\	.	.
=28	=28	=28	=28	=28
4BB-/	.	[2.dd\)	.	.
4F\ 4B- 4d	.	.	.	.
4F\ 4B- 4d	.	.	.	.
=29	=29	=29	=29	=29
4BB-/	.	4dd\]	.	.
4F\ 4B- 4d	.	(4b-\	.	.
4F\ 4B- 4d	.	4dd\	.	.
=30	=30	=30	=30	=30
4BB-/	.	2ff\	.	.
4F\ 4B- 4d	.	.	.	.
4F\ 4B- 4d	.	[4gg\)	.	.
=31	=31	=31	=31	=31
4BB-/	.	4gg\]	.	.
4F\ 4B- 4d	.	(4ff\	.	.
4F\ 4B- 4d	.	4b-\	.	.
!!LO:LB:g=original	!	!	!
=32	=32	=32	=32	=32
!	!	!	!	!LO:HP:b
4BB-/	.	[2.dd\)	.	<
4F\ 4B- 4d	.	.	.	.
4F\ 4B- 4d	.	.	.	.
=33	=33	=33	=33	=33
4BB-/	.	2dd\]	.	.
4F\ 4B- 4d	.	.	.	.
4F\ 4B- 4d	.	(4ff\	.	[
=34	=34	=34	=34	=34
!	!	!	!	!LO:DY:b
4GG/	.	2.b-\) [2.bb-	.	mf
4G\ 4B- 4d	.	.	.	.
4G\ 4B- 4d	.	.	.	.
=35	=35	=35	=35	=35
4GG/	.	4b-\ 4bb-]	.	.
4G\ 4B- 4en	.	(4aa\	.	.
4G\ 4B- 4e	.	4gg\	.	.
=36	=36	=36	=36	=36
4D\	.	2ff\)	.	.
4A\ 4f	.	.	.	.
4A\ 4f	.	(8een\L	.	.
.	.	8dd\J	.	.
=37	=37	=37	=37	=37
4BBn/	.	4a\) 4aa	.	.
4F\ 4A 4d	.	4r	.	.
4F\ 4A 4d	.	(8ff\L	.	.
.	.	8dd\J	.	.
=38	=38	=38	=38	=38
4C/	.	4cc\)	.	.
4A\ 4c 4f	.	4r	.	.
4A\ 4c 4f	.	(8ccc\L	.	.
.	.	8aa\J	.	.
=39	=39	=39	=39	=39
!	!	!	!	!LO:HP:b
4C/	.	4ee-\) 4eee-	.	>
4F#X\ 4A	.	4r	.	.
4F#\ 4A	.	(8ddd\L	.	.
.	.	8aa\J	.	]]
!!LO:LB:g=original	!	!	!
=40	=40	=40	=40	=40
*	*	*^	*	*
4C/	.	2bb-/)	4ryy	.	.
4B-\ 4d 4g	.	.	4b-\	.	.
4c\ 4en	.	8aa/L	4b-\	.	.
.	.	8gg/J	.	.	.
=41	=41	=41	=41	=41	=41
4F\	.	4ff/	4a\	.	.
4A\ 4c 4f	.	4r	2ryy	.	.
4A\ 4c 4f	.	4r	.	.	.
*	*	*v	*v	*	*
=42	=42	=42	=42	=42
*^	*	*	*	*
!	!	!	!LO:TX:b:i:t=dolce	!	!
4ryy	2.D\	.	(2ff\ 2aa	.	.
4A/ 4Bn	.	.	.	.	.
4A/ 4B	.	.	8een\L 8gg	.	.
.	.	.	8dd\J) 8ff	.	.
=43	=43	=43	=43	=43	=43
4ryy	2.D\	.	(2dd\ 2ff	.	.
4A/ 4Bn	.	.	.	.	.
4A/ 4B	.	.	8cc\L 8een	.	.
.	.	.	8bn\J) 8dd	.	.
=44	=44	=44	=44	=44	=44
4ryy	2.D\	.	(2bn\ 2dd	.	.
4A/ 4Bn	.	.	.	.	.
4A/ 4B	.	.	8a\L 8cc	.	.
.	.	.	8g#X\J) 8bn	.	.
*v	*v	*	*	*	*
=45||	=45||	=45||	=45||	=45||
*k[f#c#g#]	*	*k[f#c#g#]	*	*
*M4/4	*	*M4/4	*	*
*met(c)	*	*met(c)	*	*
!	!	!LO:TX:a:t=(Rogi myśliwskie i wejście Kirkora)	!	!
!	!	!LO:TX:a:B:t=Tempo di marzia.	!	!
!	!	!LO:TX:t=P:problem= klamra łukowa	!	!
4E\ 4G# 4B	.	4g#\ 4b	.	f
*	*	*tuplet	*	*
4r	.	12r	.	.
.	.	12e/L	.	.
.	.	12g#/J	.	.
*	*	*Xtuplet	*	*
2ryy	.	12f#/L	.	.
.	.	12e/	.	.
.	.	12g#/J	.	.
.	.	12f#/L	.	.
.	.	12e/	.	.
.	.	12g#/J	.	.
=46	=46	=46	=46	=46
!	!	!LO:N:vis=8	!	!
4r	.	8.cc#/L	.	.
.	.	16g#/Jk 16b	.	.
8.r	.	[2.g#/ 2.b	.	.
16B\	.	.	.	.
[4e\	.	.	.	.
8.e\L]	.	.	.	.
16B\Jk	.	.	.	.
!!LO:LB:g=original	!	!	!
=47	=47	=47	=47	=47
*	*	*^	*	*
8e\	.	8g#/] 8b	4ryy	.	.
8r	.	8r	.	.	.
!	!	!	!	!	!LO:DY:b
(4BB/	.	(8.B/L	[4B\	.	p
.	.	16c#/Jk	.	.	.
4AA#X\) 4A#X	.	8d/)	8B\]	.	.
.	.	8r	8ryy	.	.
4AAn\ 4An	.	(8.B/L	[4B\	.	.
.	.	16c#/Jk	.	.	.
=48	=48	=48	=48	=48	=48
4GG#/ 4G#	.	8d/)	8B\]	.	.
.	.	8r	8ryy	.	.
(4BB/	.	(8.d/L	4.B\	.	.
.	.	16c#/Jk 16e	.	.	.
4AA#X\) 4A#X	.	8d/) 8f#	.	.	.
.	.	8r	4.ryy	.	.
4AAn\ 4An	.	(>8.B/L 8.d	.	.	.
.	.	16c#/Jk 16e	.	.	.
*	*	*v	*v	*	*
=49	=49	=49	=49	=49
4GG#/ 4G#	.	8d/) 8f#	.	.
.	.	8r	.	.
!	!	!	!	!LO:HP:b
(4GGn/ 4Gn	.	(>8.d/L 8.b	.	<
.	.	16e/Jk 16cc#	.	.
4FF#/) 4F#	.	8f#/) 8dd	.	.
.	.	8r	.	.
(4FFn/ 4Fn	.	(>8.B/L 8.g# 8.b	.	.
.	.	16c#/Jk 16a 16cc#	.	.
=50	=50	=50	=50	=50
4EE/) 4E	.	8d/) 8b 8dd	.	.
.	.	8r	.	.
!	!	!	!	!LO:HP:b
4DD/ 4D	.	(8.d/L 8.b 8.dd	.	<
.	.	16e/Jk 16cc# 16ee	.	.
4BBB/ 4BB	.	8f#\) 8dd 8ff#	.	.
.	.	8r	.	.
!LO:N:vis=8	!	!	!	!
8.GG#/L 8.G#	.	8.b\L 8.dd	.	.
16FF#/Jk 16F#	.	16b\Jk 16dd 16aa	.	[[
!!LO:LB:g=original	!	!	!
=51	=51	=51	=51	=51
!	!	!	!	!LO:DY:b
8EE/ 8E	.	(2b\ 2dd 2gg#	.	f
8r	.	.	.	.
(8.B\L 8.d	.	.	.	.
16c#\Jk 16e	.	.	.	.
8d\) 8f#	.	2b\ 2dd 2ff#	.	.
8r	.	.	.	.
(8.G#\L 8.B	.	.	.	.
16A\Jk 16c#	.	.	.	.
=52	=52	=52	=52	=52
8B\) 8d	.	[1e) [1b [1dd [1ee	.	.
8r	.	.	.	.
(8.E\L 8.G#	.	.	.	.
16F#\Jk 16A	.	.	.	.
8G#\) 8B	.	.	.	.
8r	.	.	.	.
8.BBB/L 8.BB	.	.	.	.
16CC#/Jk 16C#	.	.	.	.
=53	=53	=53	=53	=53
8DD/ 8D	.	8e/] 8b] 8dd] 8ee]	.	.
8r	.	8r	.	.
!	!	!	!	!LO:HP:b
(8.BB\L	.	(8.B/L	.	<
16F#\Jk	.	16f#/Jk	.	.
8E\)	.	8e/)	.	.
8r	.	8r	.	.
(8.BB\L	.	(8.B/L	.	.
16F#\Jk	.	16f#/Jk	.	[
=54	=54	=54	=54	=54
8E\)	.	8e/)	.	.
8r	.	8r	.	.
!	!	!	!	!LO:DY:b
8.BB\L 8.B	.	8.b\L 8.bb	.	ff
16F#\Jk 16f#	.	16ff#\Jk 16fff#	.	.
!	!	!LO:N:vis=8	!	!
8.E\L 8.e	.	8.ee\L 8.eee	.	.
16BB\Jk 16B	.	16b\Jk 16bb	.	.
12D\L 12d	.	12dd\L 12ddd	.	.
12C#\ 12c#	.	12cc#\ 12ccc#	.	.
12BB\J 12B	.	12b\J 12bb	.	.
=55	=55	=55	=55	=55
8AA\ 8A	.	8a\L 8aa	.	.
8r	.	16r	.	.
!	!	!LO:TX:a:t=Nam bo_ru mieszkańce	!	!
!	!	!	!	!LO:DY:b
.	.	16e\Jk 16cc# 16ee	.	mf
4AA\ 4E 4A	.	2e\ 2cc# 2ee	.	.
4AA\ 4E 4A	.	.	.	.
4AA\ 4E 4A	.	(12cc#\L 12ee	.	.
.	.	12b\) 12dd	.	.
.	.	12a\J 12cc#	.	.
=56	=56	=56	=56	=56
4AA\ 4E 4A	.	4f#\ 4dd 4ff#	.	.
!LO:TX:b:i:t=marc.	!	!LO:N:vis=2.	!	!
(8.A\L	.	[2e\ 2a [2cc# [2ee	.	.
16G#\Jk	.	.	.	.
8.F#\L	.	.	.	.
16E\Jk	.	.	.	.
8.F#\L	.	8.e\L] 8.cc#] 8.ee]	.	.
16G#\Jk	.	16e\Jk 16cc# 16ee	.	.
=57	=57	=57	=57	=57
4A\)	.	2.e\ 2.cc# 2.ee	.	.
4AA\ 4E 4A	.	.	.	.
4AA\ 4E 4A	.	.	.	.
4AA\ 4E 4A	.	(12cc#\L 12ee	.	.
.	.	12b\) 12dd	.	.
.	.	12a\J 12cc#	.	.
=58	=58	=58	=58	=58
8.AA\L 8.E 8.A	.	4f#\ 4dd 4ff#	.	.
(16G#\K	.	.	.	.
8.A\	.	4e\ 4cc# 4ee	.	.
16B\Jk	.	.	.	.
4c#\)	.	4r	.	.
4BB\ 4B	.	4e\ 4cc# 4ee	.	.
=59	=59	=59	=59	=59
!	!	!	!	!LO:HP:b
4AA\ 4A	.	2.e\ 2.cc# 2.ee	.	<
(4AA\ 4A	.	.	.	.
4GGn/) 4Gn	.	.	.	.
8.FF#/L 8.F#	.	8.a\L 8.b 8.dd	.	.
16EE/Jk 16E	.	16a\Jk 16cc# 16ee	.	[[
!!LO:LB:g=original	!	!	!
=60	=60	=60	=60	=60
4DD/ 4D	.	2.a\ 2.dd 2.ff#	.	.
12d\L 12f#	.	.	.	.
12d\ 12f#	.	.	.	.
12d\J 12f#	.	.	.	.
4d\ 4f#	.	.	.	.
4EE/ 4E	.	4a\ 4cc# 4ee	.	.
=61	=61	=61	=61	=61
4FF#/ 4F#	.	2a\ 2b 2dd	.	.
12F#\L 12A 12B	.	.	.	.
12F#\ 12A 12B	.	.	.	.
12F#\J 12A 12B	.	.	.	.
!	!	!	!	!LO:HP:b
4F#\ 4A 4B	.	4.a\ 4.dd 4.gg#	.	>
4BBB/ 4BB	.	.	.	.
.	.	8a\ 8dd 8ff#	.	]]
=62	=62	=62	=62	=62
4EE/ 4E	.	[2g#\ [2b	.	.
12E\L 12e	.	.	.	.
12E\ 12e	.	.	.	.
12E\J 12e	.	.	.	.
8E\ 8e	.	8g#/] 8b]	.	.
8r	.	8r	.	.
4EE'/ 4E	.	4r	.	.
=63	=63	=63	=63	=63
((2FFn^/ 2Fn	.	4r	.	.
!	!	!	!	!LO:DY:b
.	.	(8.g#/L 8.b	.	p
.	.	16a/Jk 16cc#	.	.
4EE/)) 4E	.	4b\) 4dd	.	.
4r	.	(8.a/L 8.cc#	.	.
.	.	16g#/Jk 16b	.	.
!!LO:LB:g=original	!	!	!
=64	=64	=64	=64	=64
!	!	!	!	!LO:DY:b
4r	.	[2cc#\) [2ee	.	f
12E\L	.	.	.	.
12E\	.	.	.	.
12E\J	.	.	.	.
4E\	.	8.cc#\L] 8.ee]	.	.
.	.	16e\Jk 16cc# 16ee	.	.
4EE'/ 4E	.	8.e\L 8.cc# 8.ee	.	.
.	.	16d\Jk 16b 16dd	.	.
=65	=65	=65	=65	=65
((2GGn^/ 2Gn	.	8c#/ 8a#X 8cc#	.	.
.	.	8r	.	.
!	!	!	!	!LO:DY:b
.	.	(8.a#\L 8.cc#	.	p
.	.	16b\Jk 16dd	.	.
4FF#/)) 4F#	.	4cc#\) 4ee	.	.
4r	.	(8.b\L 8.dd	.	.
.	.	16a#\Jk 16cc#	.	.
=66	=66	=66	=66	=66
!	!	!	!	!LO:DY:b
4r	.	[2dd\) [2ff#	.	f
12F#\L	.	.	.	.
12F#\	.	.	.	.
12F#\J	.	.	.	.
4F#\	.	8.dd\L] 8.ff#]	.	.
.	.	16f#\K 16dd 16ff#	.	.
4FF#/ 4F#	.	8.f#\ 8.dd 8.ff#	.	.
.	.	16e\Jk 16cc# 16ee	.	.
=67	=67	=67	=67	=67
((2AA^\ 2A	.	8d#X/ 8b#X 8dd#X	.	.
.	.	8r	.	.
.	.	(8.b#\L 8.dd#	.	.
.	.	16cc#\Jk 16ee	.	.
4GG#/)) 4G#	.	4dd#\) 4ff#	.	.
4r	.	(8.cc#\L 8.ee	.	.
.	.	16b#\Jk 16dd#	.	.
!!LO:LB:g=original	!	!	!
=68	=68	=68	=68	=68
4r	.	4ee\) 4gg#	.	.
!	!	!	!	!LO:HP:b
8.c#\L	.	8.cc#\L	.	<
16B\Jk	.	16cc#\Jk 16dd#X	.	.
4A#X\	.	4cc#\ 4ee	.	.
4AAn\ 4An	.	8.cc#\L 8.ee	.	.
.	.	16cc#\Jk 16dd# 16ff#	.	.
=69	=69	=69	=69	=69
!	!	!	!	!LO:DY:b
4GG#/ 4G#	.	4cc#\ 4ee 4gg#	.	f
8.C#\L	.	8.c#/L	.	.
16D#X\Jk	.	16d#X/Jk	.	.
4E\	.	4e/	.	.
8.FF#/L 8.F#	.	8.a\L 8.ddn 8.aa	.	.
16FF#/Jk 16F#	.	16a\Jk 16dd 16ff#	.	.
=70	=70	=70	=70	=70
4GG#/ 4G#	.	4g#\ 4cc# 4ee	.	.
12E\L	.	12e/L	.	.
12D#X\	.	12d#X/	.	.
12C#\J	.	12c#/J	.	.
4G#\	.	4g#/	.	.
4GG#/ 4G#	.	4b#X\ 4ff# 4gg# 4bb#X	.	.
=71	=71	=71	=71	=71
[4CC#/ [4C#	.	4cc#\ 4ee 4gg# 4ccc#	.	.
!	!	!LO:TX:t=P:problem= klamra łukowa	!	!
*	*	*tuplet	*	*
8CC#/] 8C#]	.	12r	.	.
!	!	!LO:TX:b:i:t=marc.	!	!
.	.	12e/L	.	.
8r	.	.	.	.
.	.	12g#/J	.	.
*	*	*Xtuplet	*	*
2ryy	.	12f#/L	.	.
.	.	12e/	.	.
.	.	12g#/J	.	.
.	.	12f#/L	.	.
.	.	12e/	.	.
.	.	12g#/J	.	.
!!LO:LB:g=original	!	!	!
=72	=72	=72	=72	=72
8C#/	.	8cc#\	.	.
8r	.	8r	.	.
8.BBB/L 8.BB	.	8.B/L 8.b	.	.
16FF#/Jk 16F#	.	16f#/Jk 16ff#	.	.
8.EE/L 8.E	.	8.e/L 8.ee	.	.
16BBB/Jk 16BB	.	16B/Jk 16b	.	.
12DD/L 12D	.	12d/L 12dd	.	.
12CC#/ 12C#	.	12c#/ 12cc#	.	.
12BBB/J 12BB	.	12B/J 12b	.	.
=73	=73	=73	=73	=73
4AAA/ 4AA	.	8.A/L 8.a	.	.
!	!	!	!	!LO:DY:b
.	.	(16ee/Jk	.	p
4AAA/ 4EE 4AA	.	[4a\) [4aa	.	.
4AAA/ 4EE 4AA	.	8.a\L] 8.aa]	.	.
.	.	(16ee\K	.	.
!	!	!	!	!LO:HP:b
4AAA/ 4EE 4AA	.	8.g#\) 8.gg#	.	<
.	.	(16cc#\Jk	.	.
=74	=74	=74	=74	=74
!	!	!LO:TX:b:i:t=sempre	!	!
4AAA/ 4EE 4AA	.	8.f#\L) 8.ff#	.	.
.	.	16g#\Jk 16gg#	.	.
4AAA/ 4EE 4AA	.	[4a\ [4aa	.	.
4AAA/ 4EE 4AA	.	12a\L] 12aa]	.	.
.	.	12b\ 12bb	.	.
.	.	12cc#\J 12ccc#	.	.
4AAA/ 4EE 4AA	.	8.b\L 8.bb	.	.
.	.	16a\Jk 16aa	.	.
=75	=75	=75	=75	=75
4AAA/ 4EE 4AA	.	8.a\L 8.aa	.	.
.	.	(16ee\Jk	.	.
4AAA/ 4EE 4AA	.	[4a\) [4aa	.	.
4AAA/ 4EE 4AA	.	8.a\L] 8.aa]	.	.
.	.	(16ee\K	.	.
4AAA/ 4EE 4AA	.	8.g#\) 8.gg#	.	.
.	.	(16cc#\Jk	.	.
!!LO:LB:g=original	!	!	!
=76	=76	=76	=76	=76
4AAA/ 4EE 4AA	.	8.f#\L) 8.ff#	.	.
.	.	16g#\Jk 16gg#	.	.
!	!	!LO:N:vis=4.	!	!
4AAA/ 4EE 4AA	.	[4a\ [4aa	.	.
4AAA/ 4EE 4AA	.	12a\L] 12aa]	.	.
.	.	12b\ 12bb	.	.
.	.	12cc#\J 12ccc#	.	.
4AAA/ 4EE 4AA	.	8.b\L 8.bb	.	.
.	.	16a\Jk 16aa	.	.
=77	=77	=77	=77	=77
8.AAA/L 8.EE 8.AA	.	8.a\L 8.aa	.	.
!	!	!	!	!LO:DY:b
16FFF#/Jk 16FF#	.	16aa\Jk 16ccc# 16aaa	.	ff
[4BBB/ [4BB	.	2gg#\ 2bb 2ddd 2ggg#	.	.
8.BBB/L] 8.BB]	.	.	.	.
16CC#/Jk 16C#	.	.	.	.
8.DD/L 8.D	.	4ff#\ 4aa 4ddd 4fff#	.	.
16BBB/Jk 16BB	.	.	.	.
=78	=78	=78	=78	=78
*	*	*^	*	*
8.EE/L 8.E	.	4bb\ 4eee	4ee\ 4gg#	.	.
16FF#/Jk 16F#	.	.	.	.	.
[4GG#/ [4G#	.	2bb\ 2ddd	2dd\ 2ff#	.	.
8.GG#\L] 8.G#]	.	.	.	.	.
16BB\K 16B	.	.	.	.	.
8.AA\ 8.A	.	(8.ccc#/L	[4cc#\ 4ee#X	.	.
16GG#\Jk 16G#	.	16bb/Jk	.	.	.
*	*	*v	*v	*	*
=79	=79	=79	=79	=79
4FF#/ 4F#	.	4cc#\]) 4ff# 4aa	.	.
2DD#X/ 2D#X	.	2c#/ 2f# 2a	.	.
4AA\ 4A	.	4c#/ 4d#X	.	.
!!LO:LB:g=original	!	!	!
=80	=80	=80	=80	=80
*	*	*^	*	*
[2GG#/ [2G#	.	(1g#;	[2B#X\ [2d#X	.	.
8GG#/] 8G#]	.	.	8B#\] 8d#]	.	.
8r	.	.	8r	.	.
4r	.	.	4r	.	.
*	*	*v	*v	*	*
=81||	=81||	=81||	=81||	=81||
*k[b-e-a-d-g-]	*	*k[b-e-a-d-g-]	*	*
*M3/4	*	*M3/4	*	*
*^	*	*^	*	*
!	!	!	!LO:TX:a:t=(Romans Kirkora.)	!	!	!
!	!	!	!LO:TX:b:i:t=dolce	!	!	!
!	!	!	!	!LO:TX:t=P:problem= tekst nad zapisem nutowym	!	!
(2A-/	[2.D-\	.	8a-/L)	(2.f\	Za	.
.	.	.	8a-/	.	jas-	.
.	.	.	8b-/	.	-kó-	.
.	.	.	8dd-/	.	-łecz-	.
4An/	.	.	8cc/	.	.	.
.	.	.	8dd-/J	.	-ką	.
=82	=82	=82	=82	=82	=82	=82
(2.B-/)	2.D-\_	.	(<8ee-/L	2.g-\)	cia-	.
.	.	.	8gg-/	.	.	.
.	.	.	8ff/)	.	.	.
!	!	!	!LO:TX:b:i:t=espress.	!	!	!
.	.	.	8ee-/	.	-gną	.
.	.	.	8dd-/	.	mo-	.
.	.	.	8b-/J	.	-je	.
*	*	*	*v	*v	*	*
=83	=83	=83	=83	=83	=83
!	!	!	!LO:TX:b:i:t=dolce	!	!
8A-/L)	4D-\_	.	[4f/ 4dd-	o-	.
(8f/	.	.	.	.	.
8e-/	8D-\]	.	8f/] 8a-	-czy.	.
8d-/	8r	.	8r	.	.
8c/	4r	.	4r	.	.
8d-/J	.	.	.	.	.
=84	=84	=84	=84	=84	=84
*	*	*	*^	*	*
4ryy	8B-M>\L)	.	4r	4ryy	.	.
.	(8F\J	.	.	.	.	.
8A-/L	2A-\)	.	[2a-/	4f\	.	.
(8d-/	.	.	.	.	.	.
8B-/	.	.	.	4g-\	.	.
8c/J)	.	.	.	.	.	.
=85	=85	=85	=85	=85	=85	=85
(2A-/	[2.D-\	.	8a-/]	2.f\	.	.
.	.	.	(<(8a-/L	.	.	.
.	.	.	8b-/	.	.	.
.	.	.	8dd-/	.	.	.
4An/	.	.	8cc/	.	.	.
.	.	.	8dd-/J	.	.	.
!!LO:LB:g=original	!	!	!	!	!
=86	=86	=86	=86	=86	=86	=86
2B-/	4D-\]	.	8ee-/L)	2g-\)	.	.
!	!	!	!LO:TX:b:i:t=espr.	!	!	!
.	.	.	(8gg-/	.	.	.
.	4C\	.	8ff/	.	.	.
.	.	.	8ee-/	.	.	.
4An/)	4F\	.	8dd-/	4e-\	.	.
.	.	.	8cc/J	.	.	.
*v	*v	*	*	*	*	*
=87	=87	=87	=87	=87	=87
[4BB-\ [4F [4B-	.	8dd-/L	4f\	.	.
.	.	8ee-/J	.	.	.
8BB-\] 8F] 8B-]	.	8ff/)	12f\L	.	.
.	.	.	(>12e-\	.	.
8r	.	4.ryy	.	.	.
.	.	.	12d-\J	.	.
((4C\ 4En	.	.	12c\L	.	.
.	.	.	12B-\	.	.
.	.	.	12An\J	.	.
=88	=88	=88	=88	=88	=88
8D-\)) 8F	.	2ryy	12c\L	.	.
.	.	.	12B-\	.	.
8r	.	.	.	.	.
.	.	.	12G-</J	.	.
4r	.	.	4F</)	.	.
(4FF/	.	(8.A-X/L 8.c	4ryy	.	.
.	.	16Gn/Jk 16B-	.	.	.
*	*	*v	*v	*	*
=89	=89	=89	=89	=89
8FFF/)	.	8F/L) 8A-	.	.
!	!	!	!	!LO:DY:b
8r	.	(8cc/	.	p
(4A-'\ 4c 4f	.	8b-/	.	.
.	.	8a-/	.	.
4G-'\) 4B- 4en	.	8b-/	.	.
.	.	8dd-/J	.	.
=90	=90	=90	=90	=90
*	*	*^	*	*
4FF/	.	8.cc\L)	2ryy	.	.
.	.	16cc\Jk	.	.	.
(4A-'\ 4c 4f	.	[4ff\	.	.	.
4D-'\) 4B-	.	8ff/L]	4f\	.	.
.	.	(8b-/J	.	.	.
!!LO:LB:g=original	!	!	!	!
=91	=91	=91	=91	=91	=91
4CC/	.	8dd-/L)	4f\	.	.
!	!	!	!	!	!LO:HP:b
.	.	(8bb-/	.	.	<
4Gn\ 4en	.	8aa-/	2ryy	.	.
.	.	8gg-/	.	.	.
[4B-\ 4c 4g-	.	8ffn/	.	.	.
.	.	8een/J)	.	.	.
=92	=92	=92	=92	=92	=92
*^	*	*	*	*	*
!	!	!	!	!	!	!LO:HP:b
4B-/]	[2.F\ 2.c	.	(8.ff\L	2ryy	.	[
.	.	.	16gg-\Jk	.	.	.
(4A-/	.	.	4aa-\	.	.	.
!	!	!	!	!	!	!LO:HP:b
4Bn/	.	.	16gg-/LL	4g-\	.	>
.	.	.	16ff/	.	.	.
.	.	.	16ee-/	.	.	.
.	.	.	16dd-/JJ	.	.	.
*v	*v	*	*	*	*	*
*	*	*v	*v	*	*
=93	=93	=93	=93	=93
8F\]) 8c	.	8a-\L) 8cc	.	]
!	!	!	!	!LO:DY:b
8r	.	(8cc\	.	p
4A-\ 4c	.	8b-\	.	.
.	.	8a-\	.	.
4Gn\ 4B- 4en	.	8b-\	.	.
.	.	8dd-\J	.	.
=94	=94	=94	=94	=94
*	*	*^	*	*
!	!	!	!	!	!LO:HP:b
4FF/	.	8cc/L)	4a-\	.	<
.	.	(8cc/	.	.	.
(4E-'\ 4c	.	8ff/	[4a-\	.	.
.	.	8een/	.	.	.
4Dn'\ 4Bn	.	8ggn/	4a-\]	.	.
.	.	8ff/J)	.	.	[[
=95	=95	=95	=95	=95	=95
*^	*	*	*	*	*
8.c/L	[4E-\	.	(4aa-/	(4a-\	.	.
16e-/Jk	.	.	.	.	.	.
8a-/)	8E-\]	.	8ee-/)	8cc\)	.	.
8r	4.ryy	.	(>8e-/L	4.ryy	.	.
4r	.	.	8a-/	.	.	.
.	.	.	8c/J	.	.	.
*v	*v	*	*	*	*	*
!!LO:LB:g=original	!	!	!	!
=96	=96	=96	=96	=96	=96
4r	.	8e-/L)	4ryy	.	.
!	!	!	!	!	!LO:HP:b
.	.	(>8een/	.	.	<
2E-\ 2d-	.	8ggn/	2gn\	.	.
.	.	8ff/	.	.	.
.	.	8ee-X/	.	.	.
.	.	8b-/J	.	.	[[
=97	=97	=97	=97	=97	=97
*^	*	*	*	*	*
4E-/	[2.AA-\	.	8dd-/L	4d-\ 4gn	.	.
.	.	.	8cc/J	.	.	.
!	!	!	!	!	!	!LO:DY:b
(4A-/	.	.	4a-/)	4c\	.	p
!	!	!	!	!	!	!LO:HP:b
8G-X/L	.	.	(8b--/L	4d-\	.	<
8F-X/J	.	.	8dd-/J	.	.	.
=98	=98	=98	=98	=98	=98	=98
8E-/L	2.AA-\]	.	8e-/L 8cc-X	4ryy	.	.
8Gn/J	.	.	8d-/J 8b--	.	.	.
4A-/)	.	.	4a-/)	4c\	.	.
(8G-X/L	.	.	(8b--/L	4d-\	.	.
8F-X/J	.	.	8dd-/J	.	.	.
=99	=99	=99	=99	=99	=99	=99
8E-/L	(2.AA-\	.	8e-/L 8cc-X	4ryy	.	.
8Gn/J	.	.	8d-/J 8b--	.	.	.
[2A-/)	.	.	4a-/)	4c\	.	.
!	!	!	!	!	!	!LO:HP:b
.	.	.	(8g-X/L	4c-X\	.	>
.	.	.	8f/J	.	.	.
=100	=100	=100	=100	=100	=100	=100
4.A-/]	2.BB-\)	.	4e-/	[4B-\	.	.
.	.	.	8dn/)	8B-\]	.	.
8G-/L	.	.	8r	4.ryy	.	]
8F/	.	.	([4bb-^\	.	.	.
8A-/J	.	.	.	.	.	.
*v	*v	*	*	*	*	*
*	*	*v	*v	*	*
!!LO:LB:g=original	!	!	!
=101	=101	=101	=101	=101
!	!	!	!	!LO:HP:b
[2.EE-/ [2.BB- [2.G-	.	8.bb-\L]	.	<
.	.	16aa-\Jk	.	.
.	.	16gg-M\LL	.	.
.	.	16ff\	.	.
.	.	16ee-\	.	.
.	.	16ddn\JJ	.	[
!	!	!	!	!LO:HP:b
.	.	16ff\LL	.	>
.	.	16ee-\	.	.
.	.	16dd-X\	.	.
.	.	16cc-X\JJ	.	]]
=102	=102	=102	=102	=102
4EE-/] 4BB-] 4G-]	.	8b-\)	.	.
.	.	8r	.	.
!	!	!	!	!LO:DY:b
4G-\ 4B- 4e-	.	(4b-\	.	p
4G-\ 4B- 4e-	.	8a-/L	.	.
.	.	8b-/J	.	.
=103	=103	=103	=103	=103
*	*	*^	*	*
4EE-/ 4E-	.	8cc-X\L)	2ryy	.	.
.	.	(8gg-\	.	.	.
4G-\ 4c-X 4e-	.	8ff\	.	.	.
.	.	8ee-\J	.	.	.
4G-\ 4c- 4e-	.	8dd-/L	[4g-\	.	.
.	.	8cc-/J	.	.	.
=104	=104	=104	=104	=104	=104
*^	*	*	*	*	*
8E-/L	4E-\	<	4ee-/	4g-\_	.	.
!LO:TX:t=P:problem= łuk frazowy dla 8g- zapisany w t. 104, brak w t. 105	!	!	!	!	!	!
(8g-/	.	.	.	.	.	.
8f/	2ryy	.	8b-/)	8g-\]	.	.
8e-/J	.	.	8r	4.ryy	.	.
16d-M/LL	.	.	([>4g-/ 4an	.	.	.
16c-X/	.	.	.	.	.	.
16e-/	.	.	.	.	.	.
16c-/JJ	.	[	.	.	.	.
*v	*v	*	*	*	*	*
*	*	*v	*v	*	*
!!LO:LB:g=original	!	!	!
=105	=105	=105	=105	=105
4E-\)	.	8g-/]) 8b-	.	.
.	.	8r	.	.
!	!	!	!	!LO:DY:b
4G-\ 4B- 4e-	.	(4b-\	.	p
4G-\ 4B- 4e-	.	8cc-X\L	.	.
.	.	8dd-\J	.	.
=106	=106	=106	=106	=106
!	!	!	!	!LO:HP:b
4EE-/ 4E-	.	8ee-\L	.	<
.	.	8dd-\	.	.
4G-\ 4c-X 4e-	.	8cc-X\)	.	.
.	.	(8ee-\	.	.
4G-\ 4c- 4e-	.	8ff\	.	.
.	.	8gg-\J	.	[[
=107	=107	=107	=107	=107
[4D-\ [4A- [4c-X	.	8aa-\L)	.	.
.	.	(8cc-X\	.	.
8D-\L] 8A-] 8c-]	.	8b-\	.	.
8D-\	.	8a-\J	.	.
8D-\	.	16g-M</LL	.	.
.	.	16f/	.	.
8D-\J	.	16a-/	.	.
.	.	16c-X/JJ	.	.
=108	=108	=108	=108	=108
!	!	!LO:TX:b:i:t=espr.	!	!
8GG-\L	.	[2B-/)	.	.
8D-\ 8G-	.	.	.	.
8D-\ 8G-	.	.	.	.
8D-\ 8G-	.	.	.	.
8D-\ 8G-	.	8B-/L]	.	.
8D-\J 8G-	.	(8c-X/J	.	.
=109	=109	=109	=109	=109
8GG-\L	.	8d-/L	.	.
8D-\ 8B-	.	8f/	.	.
8D-\ 8B-	.	8a-/	.	.
8D-\ 8B-	.	8g-/	.	.
8D-\ 8G-	.	8B-/	.	.
8D-\J 8G-	.	8c-X/J	.	.
=110	=110	=110	=110	=110
!	!	!	!	!LO:HP:b
8FF\L	.	(4e-/)	.	<
8D-\ 8c-X	.	.	.	.
8D-\ 8c-	.	[4d-/)	.	.
8D-\ 8c-	.	.	.	.
8D-\ 8c-	.	8d-/L]	.	.
!	!	!	!	!LO:DY:b
8D-\J 8c-	.	8d-/J 8dd-	.	[ f
!!LO:LB:g=original	!	!	!	!
=111	=111	=111	=111	=111
8GG-\L	.	[2b-\ [2bb-	.	.
8D-\ 8B-	.	.	.	.
8D-\ 8B-	.	.	.	.
8D-\ 8B-	.	.	.	.
8D-\ 8B-	.	8b-\L] 8bb-]	.	.
8D-\J 8B-	.	(8a-\J 8aa-	.	.
=112	=112	=112	=112	=112
8GG-\L	.	8g-\L 8gg-	.	.
8D-\ 8B-	.	8f\ 8ff	.	.
8D-\ 8B-	.	8a-\ 8aa-	.	.
8D-\ 8B-	.	8g-\ 8gg-	.	.
8D-\ 8G-	.	8B-\ 8b-	.	.
8D-\J 8G-	.	8cn\J 8ccn	.	.
=113	=113	=113	=113	=113
*^	*	*	*	*
!	!	!	!	!	!LO:HP:b
[4En/	(8.GGn\L	.	((4d-/) 4dd-	.	>
.	16BB-\Jk	.	.	.	.
8E/]	8D-\)	.	8Gn/)) 8gn	.	.
(8c\L	4.ryy	.	8r	.	]
8e-\	.	.	4r	.	.
8d-\J	.	.	.	.	.
*v	*v	*	*	*	*
=114	=114	=114	=114	=114
!	!	!	!	!LO:DY:b
[2.A-\) [2.d- [2.f	.	8r	.	p
!	!	!LO:TX:a:i:t=dolce	!	!
.	.	(8a-\L	.	.
.	.	8b-\	.	.
.	.	8dd-\	.	.
.	.	8cc\	.	.
.	.	8dd-\J	.	.
=115	=115	=115	=115	=115
*^	*	*	*	*
!	!	!	!	!	!LO:HP:b
4d-/] 4f]	2A-\]	.	8ee-\L)	.	<
.	.	.	(8gg-\	.	.
(4f/ 4a-	.	.	8ff\	.	.
.	.	.	8ee-\	.	.
4e-/ 4g-	4ryy	.	8gg-\	.	.
.	.	.	8bb-\J	.	[[
=116	=116	=116	=116	=116	=116
*	*	*	*^	*	*
!	!	!	!	!	!	!LO:HP:b
[4d-/) [4f	[4A-\	.	(4ddd-/)	[4dd-\ [4ff	.	>
8d-/] 8f]	8A-\]	.	8aa-/)	8dd-\] 8ff]	.	.
8r	4.ryy	.	(8f/L	4.ryy	.	]
4r	.	.	8e-/)	.	.	.
.	.	.	(8d-'/J	.	.	.
*v	*v	*	*	*	*	*
*	*	*v	*v	*	*
!!LO:LB:g=original	!	!	!	!
=117	=117	=117	=117	=117
2.ryy	.	8c'/L	.	.
.	.	8d-'/J	.	.
.	.	(4A-/)	.	.
!	!	!	!	!LO:HP:b
.	.	8B-/L)	.	<
.	.	(8g-/J	.	.
=118	=118	=118	=118	=118
*	*	*^	*	*
4r	.	(2f/)	4ryy	.	.
(4FFF/ 4FF	.	.	&(4An\ 4c	.	.
!	!	!	!	!	!LO:HP:b
4AAA-/ 4AA-	.	&(8f/L	4G-X\) 4c 4a-)	.	[ >
.	.	8e-/J	.	.	.
=119	=119	=119	=119	=119	=119
*^	*	*	*	*	*
8DD-/) 8D-	4ryy	.	8F/&) 8d- 8a-&)	4ryy	.	.
8r	.	.	8r	.	.	]
!	!	!	!	!	!	!LO:DY:b
(4d-/	[2D-\	.	(4dd-/	4f\	.	f
8c-X/L	.	.	8ee--/L	4g-\	.	.
8B--/J	.	.	8gg-/J	.	.	.
=120	=120	=120	=120	=120	=120	=120
8A-/L	2.D-\]	.	8a-/L 8ff-X	2ryy	.	.
8cn/J	.	.	8g-/J 8ee--	.	.	.
!	!	!	!	!	!	!LO:HP:b
4d-/)	.	.	4f/) 4dd-	.	.	<
(8c-X/L	.	.	(8ee--/L	4g-\	.	.
8B--/J	.	.	8gg-/J	.	.	[
=121	=121	=121	=121	=121	=121	=121
8A-/L	2D-\	.	8a-/L 8ff-X	2ryy	.	.
!	!	!	!	!	!	!LO:HP:b:t=dim.
8c-X/J	.	.	8g-/J 8ee--	.	.	>
4d-/)	.	.	4f/) 4dd-	.	.	.
4d-/	4ryy	.	(8cc-X/L	4f-X\	.	.
.	.	.	8b-/J	.	.	.
*v	*v	*	*	*	*	*
=122	=122	=122	=122	=122	=122
!	!	!	!	!	!LO:HP:b
[2E-\ [2d-	.	4a-/	[2e-\	.	>
.	.	4gn/	.	.	.
8E-\] 8d-]	.	8g/L)	4e-\]	.	.
8r	.	(8dd-/J	.	.	]
*	*	*v	*v	*	*
!!LO:LB:g=original	!	!	!	!
=123||	=123||	=123||	=123||	=123||
*k[b-e-a-d-]	*	*k[b-e-a-d-]	*	*
*M9/8	*	*M9/8	*	*
*	*	*^	*	*
!	!	!LO:TX:a:t=Śpiew Aliny z kwintetu (Akt I.)\n,,Ach jego słowa jakby głos piosenki"	!	!	!
!	!	!LO:N:vis=4	!	!	!
16AA-\LL	.	[4.cc\)	4.ryy	.	.
16E-\	.	.	.	.	.
16A-\	.	.	.	.	.
16c\	.	.	.	.	.
16A-\	.	.	.	.	.
16E-\JJ	.	.	.	.	.
!	!	!	!	!	!LO:HP:b
16AA-\LL	.	8cc/L]	4.e-\	.	<
16E-\	.	.	.	.	.
16A-\	.	(8b-/	.	.	.
16c\	.	.	.	.	.
16A-\	.	8cc/J	.	.	.
16E-\JJ	.	.	.	.	.
16BB-\LL	.	8dd-/L	(4.g\	.	.
16E-\	.	.	.	.	.
16G\	.	8gg/	.	.	.
16d-\	.	.	.	.	.
16G\	.	8ff/J	.	.	.
16E-\JJ	.	.	.	.	.
=124	=124	=124	=124	=124	=124
16C\LL	.	[4.ee-/)	[2.a-\)	.	[
16E-\	.	.	.	.	.
16A-\	.	.	.	.	.
16c\	.	.	.	.	.
16A-\	.	.	.	.	.
16E-\JJ	.	.	.	.	.
16C\LL	.	8ee-/L]	.	.	.
16E-\	.	.	.	.	.
16A-\	.	(8ee-/	.	.	.
16c\	.	.	.	.	.
!	!	!	!	!	!LO:HP:b:t=cresc
16A-\	.	8ee-/J	.	.	<
16E-\JJ	.	.	.	.	.
!	!	!LO:TX:t=P:problem=ligatura widoczna w t. 125, brak w t. 124	!	!	!
16C\LL	.	8ee-/L	4.a-\_	.	.
16E-\	.	.	.	.	.
16A-\	.	8bb-/	.	.	.
16c\	.	.	.	.	.
16A-\	.	8aa-/J	.	.	.
16E-\JJ	.	.	.	.	.
!!LO:LB:g=original	!	!	!	!	!
=125	=125	=125	=125	=125	=125
16D-\LL	.	8gg/L)	2.a-\]	.	.
16A-\	.	.	.	.	.
16B-\	.	(8een/	.	.	.
16f\	.	.	.	.	.
!	!	!	!	!	!LO:HP:b
16B-\	.	8ff/J	.	.	<
16A-\JJ	.	.	.	.	.
16D-\LL	.	[4.aa-/)	.	.	.
16A-\	.	.	.	.	.
16B-\	.	.	.	.	.
16f\	.	.	.	.	.
16B-\	.	.	.	.	.
16A-\JJ	.	.	.	.	.
16D-\LL	.	4aa-/]	4.a-\ 4.b-	.	.
16A-\	.	.	.	.	.
16B-\	.	.	.	.	.
16f\	.	.	.	.	.
16B-\	.	(8ff/	.	.	.
16A-\JJ	.	.	.	.	.
=126	=126	=126	=126	=126	=126
16BB-\LL	.	8ee-/L	[4.f\ [4.a-	.	[
16F\	.	.	.	.	.
16A-\	.	8cc/	.	.	.
16d-\	.	.	.	.	.
!	!	!	!	!	!LO:HP:b
16A-\	.	8dd-/J	.	.	>
16F\JJ	.	.	.	.	.
!	!	!LO:TX:t=P:problem=niewidoczne dźwięki?	!	!	!
16BB-\LL	.	4ff/)	4.f\]yy 4.a-yy]	.	.
16F\	.	.	.	.	.
16A-\	.	.	.	.	.
16d-\	.	.	.	.	.
16A-\	.	(8b-/	.	.	.
16F\JJ	.	.	.	.	.
16EE-\LL	.	8dd-/L	4.e-\ 4.g	.	.
16E-\	.	.	.	.	.
16G\	.	8cc/	.	.	.
16d-\	.	.	.	.	.
16G\	.	8bn/J	.	.	.
16E-\JJ	.	.	.	.	]]
=127	=127	=127	=127	=127	=127
16AA-\LL	.	[4.cc/)	2.e-\ 2.a-	.	.
16E-\	.	.	.	.	.
16A-\	.	.	.	.	.
16c\	.	.	.	.	.
16A-\	.	.	.	.	.
16E-\JJ	.	.	.	.	.
16AA-\LL	.	8cc/L]	.	.	.
16E-\	.	.	.	.	.
16A-\	.	(8b-X/	.	.	.
16c\	.	.	.	.	.
16A-\	.	8cc/J	.	.	.
16E-\JJ	.	.	.	.	.
16BB-\LL	.	8dd-/L	(4.g\	.	.
16E-\	.	.	.	.	.
16G\	.	8gg/	.	.	.
16d-\	.	.	.	.	.
16G\	.	8ff/J	.	.	.
16E-\JJ	.	.	.	.	.
!!LO:LB:g=original	!	!	!	!	!
=128	=128	=128	=128	=128	=128
16C\LL	.	[4.ee-/)	2.a-\)	.	<
16E-\	.	.	.	.	.
16A-\	.	.	.	.	.
16c\	.	.	.	.	.
16A-\	.	.	.	.	.
16E-\JJ	.	.	.	.	.
16C\LL	.	8ee-/L]	.	.	.
16E-\	.	.	.	.	.
16A-\	.	(8bn/	.	.	.
16c\	.	.	.	.	.
16A-\	.	8cc/J	.	.	.
16E-\JJ	.	.	.	.	.
16FF/LL	.	8ddn/L	4.cc\	.	.
16C/	.	.	.	.	.
16A-/	.	8bb-/	.	.	.
16C/	.	.	.	.	.
16FF/	.	8aa-/J	.	.	.
16C/JJ	.	.	.	.	.
*	*	*v	*v	*	*
=129||	=129||	=129||	=129||	=129||
*k[]	*	*k[]	*	*
*	*	*^	*	*
*ped	*	*	*	*	*
16GG\LL	.	4cc\) 4ee 4gg	4.ryy	.	[
16C\	.	.	.	.	.
16E\	.	.	.	.	.
16G\	.	.	.	.	.
16c\	.	8r	.	.	.
16e\JJ	.	.	.	.	.
!	!	!	!	!	!LO:DY:b
16g\LL	.	([4.gg/ [4.eee	[4.ee\	.	pp
16e\	.	.	.	.	.
16c\	.	.	.	.	.
16G\	.	.	.	.	.
16E\	.	.	.	.	.
16C\JJ	.	.	.	.	.
!	!	!LO:N:vis=4.	!	!	!
16GG\LL	.	4gg/] 4eee]	4.ee\]	.	.
16C\	.	.	.	.	.
16E\	.	.	.	.	.
16G\	.	.	.	.	.
16E\	.	8ccc/	.	.	.
16C\JJ	.	.	.	.	.
*Xped	*	*	*	*	*
!!LO:LB:g=original	!	!	!	!	!
=130	=130	=130	=130	=130	=130
*ped	*	*	*	*	*
24EE/LL	.	4ee/) 4bbn	[4.g#X\	.	.
24BB/	.	.	.	.	.
24EE/JJ	.	.	.	.	.
24BB/LL	.	.	.	.	.
24EE/	.	.	.	.	.
24BB/JJ	.	.	.	.	.
24EE/LL	.	2ryy	.	.	.
24BB/	.	.	.	.	.
24EE/JJ	.	.	.	.	.
!	!	!LO:TX:b:i:t=espr	!	!	!
24BB/LL	.	.	8g#\L]	.	.
*Xped	*	*	*	*	*
24EE/	.	.	.	.	.
24BB/JJ	.	.	.	.	.
24EE/LL	.	.	(8f#X\	.	.
24BB/	.	.	.	.	.
24EE/JJ	.	.	.	.	.
24BB/LL	.	.	8g#\J	.	.
24EE/	.	.	.	.	.
24BB/JJ	.	.	.	.	.
24EE/LL	.	8a/L)	(4.d#X\	.	.
24BB/	.	.	.	.	.
24EE/JJ	.	.	.	.	.
24BB/LL	.	(8dd#X/	.	.	.
24EE/	.	.	.	.	.
24BB/JJ	.	.	.	.	.
24EE/LL	.	8cc#X/J	.	.	.
24BB/	.	.	.	.	.
24EE/JJ	.	.	.	.	.
=131	=131	=131	=131	=131	=131
!LO:TX:i:b:t=con	!	!	!	!	!
24EE/LL	.	[4.e/)) [4.g#X [4.b	2.ryy	.	.
24BB/	.	.	.	.	.
*ped	*	*	*	*	*
24EE/JJ	.	.	.	.	.
24BB/LL	.	.	.	.	.
24EE/	.	.	.	.	.
24BB/JJ	.	.	.	.	.
24EE/LL	.	.	.	.	.
24BB/	.	.	.	.	.
24EE/JJ	.	.	.	.	.
24BB/LL	.	8e/L] 8g#] 8b]	.	.	.
24EE/	.	.	.	.	.
24BB/JJ	.	.	.	.	.
24EE/LL	.	(>8G#X/	.	.	.
24BB/	.	.	.	.	.
24EE/JJ	.	.	.	.	.
24BB/LL	.	8B/J	.	.	.
24EE/	.	.	.	.	.
24BB/JJ	.	.	.	.	.
24AA/LL	.	8c#X/L	4.A\	.	.
24C#X/	.	.	.	.	.
24AA/JJ	.	.	.	.	.
24C#/LL	.	8g#/	.	.	.
24AA/	.	.	.	.	.
24C#/JJ	.	.	.	.	.
24AA/LL	.	8f#X/J	.	.	.
24C#/	.	.	.	.	.
24AA/JJ	.	.	.	.	.
=132	=132	=132	=132	=132	=132
!	!	!LO:N:vis=4	!	!	!
24GG#X/LL	.	([<4.B#X/) 4.e	[4.G#X\	.	.
24BB#X/	.	.	.	.	.
24GG#/JJ	.	.	.	.	.
24BB#/LL	.	.	.	.	.
24GG#/	.	.	.	.	.
24BB#/JJ	.	.	.	.	.
24GG#/LL	.	.	.	.	.
24BB#/	.	.	.	.	.
24GG#/JJ	.	.	.	.	.
!	!	!	!	!	!LO:HP:b
24BB#/LL	.	8B#/L]) 8d#X	4G#\]	.	<
24GG#/	.	.	.	.	.
24BB#/JJ	.	.	.	.	.
24GG#/LL	.	(8B#/	.	.	.
24BB#/	.	.	.	.	.
24GG#/JJ	.	.	.	.	.
24BB#/LL	.	8d#/J	8ryy	.	.
24GG#/	.	.	.	.	.
24BB#/JJ	.	.	.	.	.
24AA/LL	.	8f#X/L	4.c#X\	.	.
24C#X/	.	.	.	.	.
24AA/JJ	.	.	.	.	.
24C#/LL	.	8dd#X/	.	.	.
24AA/	.	.	.	.	.
24C#/JJ	.	.	.	.	.
24AA/LL	.	8cc#X/J)	.	.	.
24C#/	.	.	.	.	.
24AA/JJ	.	.	.	.	[
=133	=133	=133	=133	=133	=133
*^	*	*	*	*	*
24GG#X/LL	2.ryy	.	(4.d#X/ [4.g#X [4.b	2.ryy	.	.
24BB/	.	.	.	.	.	.
24GG#/JJ	.	.	.	.	.	.
24BB/LL	.	.	.	.	.	.
24GG#/	.	.	.	.	.	.
24BB/JJ	.	.	.	.	.	.
24GG#/LL	.	.	.	.	.	.
24BB/	.	.	.	.	.	.
24GG#/JJ	.	.	.	.	.	.
24C#X/LL	.	.	8e/L) 8g#] 8b]	.	.	.
24E/	.	.	.	.	.	.
24C#/JJ	.	.	.	.	.	.
!	!	!	!	!	!	!LO:HP:b
24E/LL	.	.	(>8e/ 8ee	.	.	<
24C#/	.	.	.	.	.	.
24E/JJ	.	.	.	.	.	.
24C#/LL	.	.	8g#X/J 8gg#X	.	.	.
24E/	.	.	.	.	.	.
24C#/JJ	.	.	.	.	.	.
24E/LL	4.FF#X\	.	4aa/	8cc#X\L 8ccc#X	.	.
24C#/	.	.	.	.	.	.
24E/JJ	.	.	.	.	.	.
24C#/LL	.	.	.	8gg#\) 8ggg#X	.	.
24E/	.	.	.	.	.	.
24C#/JJ	.	.	.	.	.	.
24E/LL	.	.	8ryy	8ff#X\J 8ccc#X 8fff#X	.	.
24C#/	.	.	.	.	.	.
24E/JJ	.	.	.	.	.	.
*	*	*	*v	*v	*	*
!!LO:LB:g=original	!	!	!	!	!
=134	=134	=134	=134	=134	=134
24BB/LL	[4.BBB\	.	((4.ee\ 4.ff#X 4.bb 4.eee	.	.
24FF#X/	.	.	.	.	.
24BB/JJ	.	.	.	.	.
24FF#/LL	.	.	.	.	.
24BB/	.	.	.	.	.
24FF#/JJ	.	.	.	.	.
24BB/LL	.	.	.	.	.
24FF#/	.	.	.	.	.
24BB/JJ	.	.	.	.	.
8FF#/	4BBB\]	.	8dd#X\L)) 8ff# 8bb 8ddd#X	.	.
8r	.	.	(8a\	.	.
(8F#X\	2ryy	.	8e\J 8cc	.	.
4.BB/)	.	.	8d#X/L) 8b	.	.
.	.	.	(>8A/ 8f#X	.	.
.	.	.	8c/J 8d# 8a	.	.
*v	*v	*	*	*	*
=135	=135	=135	=135	=135
(16EE/LL	.	[4.B/) [4.e [4.g#X	.	.
16DD#X/	.	.	.	.
16EE/	.	.	.	.
16DD#/	.	.	.	.
16EE/	.	.	.	.
16DD#/JJ	.	.	.	.
8EE/L)	.	8B/L] 8e] 8g#]	.	.
(8E/	.	(>8c/	.	.
8G/J	.	8e/J	.	.
8F#X\L)	.	8d#X/L)	.	.
(8C\	.	(>8A/	.	.
8D#X\J	.	8F#X/J 8c	.	.
=136	=136	=136	=136	=136
*^	*	*	*	*
8E/)	16EE\LL	.	[4.G#X/) [<4.B	.	.
.	16DD#X\	.	.	.	.
8r	16EE\	.	.	.	.
.	16DD#\	.	.	.	.
8r	16EE\	.	.	.	.
.	16DD#\JJ	.	.	.	.
8EE\L	2.ryy	.	8G#/L] 8B]	.	.
(<8C\	.	.	(>8A/	.	.
8E\J	.	.	8c/J	.	.
8D#X\L	.	.	8B/L)	.	.
8AA\	.	.	8F#X</	.	.
8C\J)	.	.	8D</J 8A<	.	.
*v	*v	*	*	*	*
!!LO:LB:g=original	!	!	!	!
=137	=137	=137	=137	=137
16EE\LL	.	(4BB</ 4E< 4G#X<	.	.
16DD#X\	.	.	.	.
16EE\	.	.	.	.
16DD#\	.	.	.	.
16EE\	.	8Fn</ 8A<	.	.
16DD#\JJ	.	.	.	.
16EE\LL	.	4BB</ 4E< 4G#<	.	.
16DD#\	.	.	.	.
16EE\	.	.	.	.
16DD#\	.	.	.	.
16EE\	.	8F</ 8A<	.	.
16DD#\JJ	.	.	.	.
16EE\LL	.	4BB</ 4E< 4G#<	.	.
16DD#\	.	.	.	.
16EE\	.	.	.	.
16DD#\	.	.	.	.
16EE\	.	8F</) 8A<	.	.
16DD#\JJ	.	.	.	.
=138	=138	=138	=138	=138
*ped	*	*	*	*
16EE\LL	.	8BB/ 8E 8G#X	.	.
16EE\	.	.	.	.
16GG#X\	.	4ryy	.	.
16BB\	.	.	.	.
16E\	.	.	.	.
16G\JJ	.	.	.	.
!	!	!LO:TX:t=P:problem= decrescendo z lewej ręki do prawej	!	!LO:HP:b
2.ryy	.	16B<\LL	.	>
.	.	16e\	.	.
.	.	16g#X\	.	.
.	.	16b\	.	.
.	.	16ee\	.	.
.	.	16gg#X\JJ	.	.
.	.	16bb\LL	.	.
.	.	16gg#\	.	.
.	.	16bb\	.	.
.	.	16eee\	.	.
*	*	*8va	*	*
.	.	16ggg#X\	.	.
.	.	16bbb\JJ	.	]]
!!LO:LB:g=original	!	!	!	!
=139||	=139||	=139||	=139||	=139||
*M4/4	*	*M4/4	*	*
*met(c)	*	*met(c)	*	*
!	!	!LO:TX:a:t=Akt II. Przemiana Grabca w wierzbę.	!	!
!	!	!	!	!LO:DY:b
1r	.	8eeee\	.	p
*Xped	*	*X8va	*	*
!	!	!LO:TX:t=P:problem= tekst nad zapisem nutowym	!	!
.	.	(8e/L	Wy-	.
.	.	8f/	-roś-	.
.	.	8a/J	-nij	.
.	.	4cc\	ko-	.
.	.	8.b\L	-rą	.
.	.	16cc\Jk	o-	.
=140	=140	=140	=140	=140
1r	.	8b/L)	-dzia-	.
!	!	!	!	!LO:HP:b
.	.	(8g#X/	-ny	<
.	.	8a/	i	.
.	.	8cc/J	liś-	.
.	.	8ee\L	-cia-	.
.	.	8dd#X\J	-mi	.
.	.	8.gg\L	pła-	.
.	.	16ff\Jk	-czą-	[
=141	=141	=141	=141	=141
!	!	!	!	!LO:HP:b
1r	.	(8ee\L)	-ce-	>
.	.	8cc\J	.	.
.	.	8a/)	-mi	.
.	.	8r	.	]
.	.	8r	.	.
!	!	!LO:TX:b:i:t=dolce	!	!
!	!	!LO:TX:a:i:t=(Klar.)	!	!
.	.	(8e/	.	.
*	*	*tuplet	*	*
!	!	!LO:TX:t=P:problem= klamra łukowa	!	!
.	.	12f/L	.	.
.	.	12a/	.	.
.	.	12b/J	.	.
*	*	*Xtuplet	*	*
=142	=142	=142	=142	=142
!	!	!	!	!LO:HP:b
1r	.	12cc\L)	.	<
.	.	(12b\	.	.
.	.	12cc\J	.	.
.	.	12b/L	.	.
.	.	12g#X/	.	.
.	.	12a/J	.	.
.	.	12cc\L	.	.
.	.	12ee\	.	[
.	.	12dd#X\J	.	.
!	!	!	!	!LO:HP:b
.	.	8.gg;\L	.	>
.	.	16ff\Jk	.	]]
!!LO:LB:g=original	!	!	!	!
=143	=143	=143	=143	=143
*	*	*^	*	*
*ped	*	*	*	*	*
!	!	!	!	!	!LO:DY:b
[>2A\ [2c	.	8ee\)	4ryy	.	pp
!	!	!LO:TX:b:i:t=legg.	!	!	!
.	.	48ee\LLL	.	.	.
.	.	48aa\	.	.	.
.	.	48ccc\	.	.	.
.	.	48eee\	.	.	.
.	.	48ccc\	.	.	.
.	.	48aa\JJJ	.	.	.
.	.	24ee/	16r	.	.
.	.	(24f\LL	.	.	.
.	.	.	2ryy	.	.
.	.	24a\	.	.	.
.	.	24cc\	.	.	.
.	.	24a\	.	.	.
.	.	24f\JJ	.	.	.
*Xped	*	*	*	*	*
8A\] 8c]	.	8e-X/)	.	.	.
8r	.	8r	.	.	.
!	!	!	!	!	!LO:DY:b
4AAA/ 4AA	.	[4G/ [4c [4g	.	.	pp
.	.	.	8.ryy	.	.
=144	=144	=144	=144	=144	=144
!LO:TX:b:i:t=simile	!	!	!	!	!
[>2A\ [2c	.	8G/] 8c] 8g]	4ryy	.	.
.	.	48ee\LLL	.	.	.
.	.	48aa\	.	.	.
.	.	48ccc\	.	.	.
.	.	48eee\	.	.	.
.	.	48ccc\	.	.	.
.	.	48aa\JJJ	.	.	.
.	.	24ee/	16r	.	.
.	.	(24f\LL	.	.	.
.	.	.	16ryy	.	.
.	.	24a\	.	.	.
.	.	24cc\	2ryy	.	.
.	.	24a\	.	.	.
.	.	24f\JJ	.	.	.
8A\] 8c]	.	8e-X/)	.	.	.
8r	.	8r	.	.	.
4AAA/ 4AA	.	[4G/ [4c [4g	.	.	.
.	.	.	8ryy	.	.
=145	=145	=145	=145	=145	=145
*^	*	*	*	*	*
[>2A\ [2c	2.ryy	.	8G/] 8c] 8g]	4ryy	.	.
.	.	.	48ee\LLL	.	.	.
.	.	.	48aa\	.	.	.
.	.	.	48ccc\	.	.	.
.	.	.	48eee\	.	.	.
.	.	.	48ccc\	.	.	.
.	.	.	48aa\JJJ	.	.	.
.	.	.	24ee/	16r	.	.
.	.	.	(24f\LL	.	.	.
.	.	.	.	16ryy	.	.
.	.	.	24a\	.	.	.
.	.	.	24cc\	4.ryy	.	.
.	.	.	24a\	.	.	.
.	.	.	24f\JJ	.	.	.
8A\] 8c]	.	.	8e-X/)	.	.	.
8r	.	.	8r	.	.	.
8.G/L	[4AAA\ [4AA	.	(8.g/L	4c\	.	.
16F/Jk	.	.	16f/Jk	.	.	.
*v	*v	*	*	*	*	*
*	*	*v	*v	*	*
!!LO:LB:g=original	!	!	!	!
=146||	=146||	=146||	=146||	=146||
*M3/4	*	*M3/4	*	*
!	!	!LO:TX:a:t=(Chór)	!	!
8AAA\L] 8AA]	.	8E/) 8c 8e	.	.
!LO:TX:a:i:t=legg.	!	!LO:TX:b:i:t=dolce	!	!
!	!	!LO:TX:t=P:problem= tekst nad zapisem nutowym	!	!
8E\	.	8r	.	.
8A\	.	(4e'/ 4cc 4ee	Skarż	.
8E\	.	.	.	.
8AA\	.	4e'/ 4cc 4ee	się	.
8E\J	.	.	.	.
=147	=147	=147	=147	=147
8AA\L	.	4d'/ 4b 4dd	wierz-	.
8E\	.	.	.	.
8A\	.	4d'/ 4b 4dd	-bo	.
8E\	.	.	.	.
8AA\	.	4c'/) 4a 4cc	pła-	.
8E\J	.	.	.	.
=148	=148	=148	=148	=148
8AA\L	.	(8b\L 8dd	-czą-	.
8E\	.	8g\J 8ee	.	.
8A\	.	4b\ 4dd	.	.
8E\	.	.	.	.
8AA\	.	4g\) 4ee	-ca	.
8E\J	.	.	.	.
=149	=149	=149	=149	=149
8AA\L	.	4r	.	.
8E\	.	.	.	.
8A\	.	(4c'/ 4a 4cc	.	.
8E\	.	.	.	.
8AA\	.	4c'/) 4a 4cc	.	.
8E\J	.	.	.	.
=150	=150	=150	=150	=150
8EE/L	.	(8g/L 8b	.	.
8BB/	.	8e/J 8cc	.	.
8E/	.	4f/ 4b	.	.
8BB/	.	.	.	.
8EE/	.	4e/ 4cc	.	.
8BB/J	.	.	.	.
=151	=151	=151	=151	=151
8EE/L	.	4g/) 4b	.	.
8BB/	.	.	.	.
8E/	.	4e/ 4g	.	.
8BB/	.	.	.	.
8EE/	.	4r	.	.
8BB/J	.	.	.	.
!!LO:LB:g=original	!	!	!	!
=152	=152	=152	=152	=152
!	!	!	!	!LO:HP:b
8DD/L	.	(8.f/L 8.a	.	<
8AA/	.	.	.	.
.	.	16g/Jk 16b	.	.
8D/	.	4.a/ 4.cc	.	.
8AA/	.	.	.	.
8DD/	.	.	.	.
8D/J	.	8g/) 8b	.	[[
=153	=153	=153	=153	=153
!	!	!	!	!LO:HP:b
8AA/L	.	(4a\ 4cc	.	<
8E/	.	.	.	.
8CC/	.	4g\ 4ee	.	.
8C/	.	.	.	.
8DD/	.	4f/) 4dd	.	.
8D/J	.	.	.	.
=154	=154	=154	=154	=154
!	!	!	!	!LO:HP:b
8EE/L	.	(4g/ 4b	.	>
8BB/	.	.	.	.
8E/	.	4e/ 4cc	.	.
8AA/	.	.	.	.
8EE/	.	4g/) 4b	.	]]
8BB/J	.	.	.	.
=155	=155	=155	=155	=155
!	!	!	!	!LO:DY:b
8FF/L	.	(8f/L 8a	.	p
!	!	!	!	!LO:HP:b
8C/	.	8g/J 8b	.	<
8F/	.	4.a/ 4.cc	.	.
8C/	.	.	.	.
8FF/	.	.	.	.
8C/J	.	8g/ 8b	.	.
=156	=156	=156	=156	=156
(8FF/L	.	4a\) 4cc	.	.
8C/	.	.	.	.
8CC/	.	(4g\ 4ee	.	[
8C/	.	.	.	.
8DD/	.	4f/ 4dd	.	.
8D/J	.	.	.	.
=157	=157	=157	=157	=157
*	*	*^	*	*
8EE/L	.	8d/L 8b	4ryy	.	.
!	!	!	!	!	!LO:HP:b
8E/J)	.	8e/J) 8cc	.	.	>
(4.F\	.	[2a/	[2c\	.	.
8E\	.	.	.	.	.
=158	=158	=158	=158	=158	=158
4F\	.	2a/]	2.c\_	.	.
2E\	.	.	.	.	.
.	.	(4g/	.	.	]
*	*	*v	*v	*	*
!!LO:LB:g=original	!	!	!	!
=159||	=159||	=159||	=159||	=159||
*k[f#]	*	*k[f#]	*	*
*M9/8	*	*M9/8	*	*
*	*	*^	*	*
!	!	!LO:TX:a:t=Piosnka Aliny. Akt II.	!	!	!
!	!	!	!	!	!LO:HP:b
!	!	!	!	!	!LO:DY:b
4D#X\)	.	[4f#/)	4c\]	.	p <
8r	.	16.f#/LL]	8r	.	.
.	.	(32cc/JJk	.	.	.
4.r	.	[4b/)	4.r	.	.
.	.	16.b/LL]	.	.	[
!	!	!	!	!	!LO:HP:b
.	.	(32cc/JJk	.	.	>
4.r	.	4b/)	4.r	.	.
.	.	8d/	.	.	]
=160	=160	=160	=160	=160	=160
!	!	!LO:TX:t=P:problem= tekst nad zapisem nutowym	!	!	!
8GG'\L	.	(16g/LL	4.ryy	Mój	.
.	.	16b/JJ	.	.	.
8D'\	.	[4dd\)	.	dro-	.
8B'\J	.	.	.	.	.
8GG'\L	.	8dd/L]	4.g\	-gi	.
8D'\	.	8b/	.	.	.
8B'\J	.	8gg/J	.	mój	.
8GG'\L	.	(8ff#/L	4f#\	mi-	.
8D'\	.	8ee/)	.	.	.
8B'\J	.	8cc/J	8ryy	-ły	.
=161	=161	=161	=161	=161	=161
8GG\L	.	(16b/LL	4g\	zło-	.
.	.	16dd/J	.	.	.
8D\	.	8g/)	.	.	.
8B\J	.	(>8g/J	8ryy	-ty	.
8GG\L	.	8a/L	4.f#\	wiel-	.
8D\	.	8b/	.	.	.
8c\J	.	8cc/J	.	-ki	.
8GG\L	.	4b/)	4g\	pan	.
8D\	.	.	.	.	.
8B\J	.	8d/	8ryy	.	.
!!LO:LB:g=original	!	!	!	!	!
=162	=162	=162	=162	=162	=162
8GG\L	.	(<16g/LL	4.ryy	.	.
.	.	16b/JJ	.	.	.
8D\	.	[4dd\)	.	.	.
8B\J	.	.	.	.	.
8GG\L	.	8dd/L]	4.g\	.	.
8D\	.	(8b/	.	.	.
8B\J	.	8gg/J	.	.	.
8GG\L	.	8ff#/L	4.f#\	.	.
8D\	.	8ee/	.	.	.
8c\J	.	8cc/J)	.	.	.
=163	=163	=163	=163	=163	=163
!	!	!LO:N:vis=4.	!	!	!
8GG\L	.	(16b/LL	4g\	.	.
.	.	16dd/JJ	.	.	.
8D\	.	8g/L)	.	.	.
8B\J	.	(8g/J	8d\	.	.
!	!	!LO:N:vis=4.	!	!	!
8GG\L	.	8a/L	8e\L	.	.
8D\	.	8b/	8d\	.	.
8c\J	.	8a/J	8f#\J	.	.
8GG\L	.	4g/)	4.ryy	.	.
8D\	.	.	.	.	.
8B\J	.	8ryy	.	.	.
=164	=164	=164	=164	=164	=164
!	!	!LO:TX:a:i:t=poco animento	!	!	!
8DD/L	.	(16f#/LL	[4.d\	.	.
.	.	16g/JJ	.	.	.
8AA/	.	[4a/	.	.	.
8D/J	.	.	.	.	.
8DD/L	.	16a/LL]	8d\]	.	.
.	.	16dd/JJ	.	.	.
8AA/	.	8cc#X/L)	[4f#\	.	.
8D/J	.	8dd/J	.	.	.
8DD/L	.	8b/	8f#\]	.	.
8AA/	.	4a/	4f#\	.	.
8D/J	.	.	.	.	.
!!LO:LB:g=original	!	!	!	!	!
=165	=165	=165	=165	=165	=165
8DD/L	.	(16f#/LL	[4.d\	.	.
.	.	16g/JJ	.	.	.
8AA/	.	[4a/	.	.	.
8D/J	.	.	.	.	.
8DD/L	.	16a/LL]	8d\]	.	.
.	.	16dd/J	.	.	.
8AA/	.	8cc#X/	[4f#\	.	.
8D/J	.	8dd/J	.	.	.
8DD/L	.	8b/L)	8f#\]	.	.
8AA/	.	(8a/	4f#\	.	.
8D/J	.	8cc#/J	.	.	.
=166	=166	=166	=166	=166	=166
8GG/L	.	8b/L	4.fn\	.	.
8D/	.	8a/	.	.	.
8G/J	.	8g/J)	.	.	.
.	.	.	8qg/	.	.
*ped	*	*	*	*	*
8CC/L	.	[4.gg/	[4.e\	.	.
8GG/	.	.	.	.	.
8C/J	.	.	.	.	.
!	!	!	!	!	!LO:DY:b
8CC/L	.	8gg/L]	8e\]	.	p
*Xped	*	*	*	*	*
8GG/	.	8a/	4e\	.	.
8C/J	.	8cc/J	.	.	.
=167	=167	=167	=167	=167	=167
8DD/L	.	(16b/	4.e\ 4.g	.	.
!	!	!	!	!	!LO:HP:b
.	.	[4dd/)	.	.	>
8GG/	.	.	.	.	.
8D/J	.	.	.	.	.
.	.	16dd/_	.	.	.
8DD/L	.	8dd/L]	(4.c\ 4.f#	.	.
8AA/	.	(8a/	.	.	.
8D/J	.	8b/J	.	.	]
8GG/L	.	[4.g/)	(4.B\)	.	.
8D/	.	.	.	.	.
8BB/J	.	.	.	.	.
*	*	*v	*v	*	*
!!LO:LB:g=original	!	!	!	!
=168||	=168||	=168||	=168||	=168||
*k[b-e-a-]	*	*k[b-e-a-]	*	*
*M3/4	*	*M3/4	*	*
*	*	*^	*	*
!	!	!LO:TX:a:t=Alina.	!	!	!
8GG/	.	8g/]	8Bn\)	.	.
8r	.	8r	8r	.	.
!	!	!	!	!	!LO:DY:b
!	!	!	!	!	!LO:HP:b
4r	.	(4g/	4r	.	p <
4r	.	8.a-/L)	4r	.	.
.	.	16g/Jk	.	.	.
=169	=169	=169	=169	=169	=169
(2B-\	.	4g/	2d\	.	.
.	.	4f/	.	.	[
!	!	!LO:TX:t=P:problem= tekst nad zapisem nutowym	!	!	!
4F\) 4c-X	.	8.a-/L	(4e-\	Wi-	.
.	.	16g/Jk	.	-dzisz	.
=170	=170	=170	=170	=170	=170
2B-\	.	(4g/	2d\)	sio-	.
!	!	!	!	!	!LO:DY:b
.	.	8f/L)	.	-stro	p
.	.	(8f/	.	bo	.
4A-\ [4B-	.	8g/	4d\	.	.
.	.	8a-/J)	.	ten	.
=171	=171	=171	=171	=171	=171
!	!	!	!	!	!LO:HP:b
2G\ 2B-]	.	(8b-/L	2e-\	ma-	<
.	.	8dd/J	.	.	.
.	.	4.ff/)	.	.	.
4F#X\ 4c	.	.	4an\	.	.
.	.	8ee-/	.	-lin	[
=172	=172	=172	=172	=172	=172
!	!	!	!	!	!LO:HP:b
[4G\ [4e-	.	(4ee-/	4b-\	dzba-	>
8G\] 8e-]	.	8b-/L)	2ryy	-nek	.
!	!	!	!	!	!LO:DY:b
8r	.	(>8e-/	.	.	] p
4r	.	8.a-/	.	.	.
.	.	16g/Jk)	.	.	.
=173	=173	=173	=173	=173	=173
!	!	!	!	!	!LO:HP:b
2B-\	.	(4g/	2d\	.	<
.	.	4f/	.	.	.
(4F\ 4c-X	.	8.a-/L	4e-\	.	.
.	.	16g/Jk	.	.	[
!!LO:LB:g=original	!	!	!	!	!
=174	=174	=174	=174	=174	=174
2B-\)	.	4g/	2d\	.	.
.	.	8f/L)	.	.	.
.	.	(8f/	.	.	.
!	!	!	!	!	!LO:HP:b
4A-\ 4B-	.	8g/	4d\	.	<
.	.	8a-/J)	.	.	.
=175	=175	=175	=175	=175	=175
2G\ 2B-	.	(8.b-/L	2e-\	.	.
.	.	16dd/Jk	.	.	.
.	.	4.ff/	.	.	.
!	!	!	!	!	!LO:HP:b
((4F#X\ 4c	.	.	(4an\	.	[ >
.	.	8ee-/	.	.	.
=176	=176	=176	=176	=176	=176
[4G\)) [4B-	.	8dd/L	4b-\)	.	.
.	.	8cc/	.	.	.
8G\] 8B-]	.	8b-/)	4ryy	.	.
8r	.	(>8b-/	.	.	]
!	!	!LO:TX:b:i:t=pecc	!	!	!
4B-\	.	8a-X/	4d-X\ 4en	.	.
.	.	8g/J	.	.	.
=177	=177	=177	=177	=177	=177
!	!	!	!	!	!LO:HP:b:t=cresc
[4A-\	.	8.f/L	[4c\	.	<
.	.	16a-/Jk)	.	.	.
8A-\]	.	8cc/L	4c\] 4f	.	.
8r	.	(8cc/	.	.	.
4c\	.	8b-/	4e-\ 4f#X	.	.
.	.	8an/J	.	.	.
=178	=178	=178	=178	=178	=178
[4B-\	.	(8.g/L)	[4d\	.	.
.	.	16b-/Jk	.	.	.
8B-\]	.	8dd/L)	8d\]	.	.
8r	.	(8dd/	8r	.	.
(<4A-X\ 4B-	.	8cc/	4d\	.	.
.	.	8b-/J)	.	.	.
=179	=179	=179	=179	=179	=179
*^	*	*	*	*	*
!LO:N:vis=2	!	!	!	!	!	!LO:HP:b
(4B-/)	(>2G\	.	(8an/L	4d\	.	<
.	.	.	8b-/J	.	.	.
4e-/	.	.	4.aa-/	4ryy	.	.
4en\ 4c	4c\)yy	.	.	4b-\	.	.
.	.	.	8gg/)	.	.	[
*v	*v	*	*	*	*	*
!!LO:LB:g=original	!	!	!	!	!
=180	=180	=180	=180	=180	=180
[4F\ [4c [4f	.	8ff/L	[4a-\	.	.
.	.	8ee-/	.	.	.
8F\] 8c] 8f]	.	8cc/	8a-\]	.	.
8r	.	(8a-/	8r	.	.
4A-\ 4c 4e-	.	8f/	4ryy	.	.
.	.	8ff/J)	.	.	.
=181	=181	=181	=181	=181	=181
[4BB-\ [4G	.	(4ee-/	[4e-\	.	.
8BB-\] 8G]	.	8b-/L)	8e-\]	.	.
!	!	!	!	!	!LO:DY:b
8r	.	(>8g/	4.ryy	.	p
4r	.	8e-/	.	.	.
.	.	8dd/J)	.	.	.
=182	=182	=182	=182	=182	=182
*^	*	*	*	*	*
!	!	!	!	!	!	!LO:HP:b
4r	4ryy	.	([2cc/	4ryy	.	>
4An/	2BB-\	.	.	(<4e-\ (4g	.	.
4A-X/	.	.	8cc/L]	(4d\) 4f)	.	]
.	.	.	8b-/J	.	.	.
*v	*v	*	*	*	*	*
*	*	*v	*v	*	*
=183||	=183||	=183||	=183||	=183||
*k[b-e-]	*	*k[b-e-]	*	*
*M3/4	*	*M3/4	*	*
!	!	!LO:TX:a:t=Akt III muzyka baletowa.	!	!
!	!	!LO:TX:a:B:t=Tempo di Valse.	!	!
4E-\ 4G	.	4e-/))	.	.
!	!	!	!	!LO:DY:b
4r	.	4r	.	f
4r	.	8e-/L 8ee-	.	.
.	.	8e-/J 8ee-	.	.
=184	=184	=184	=184	=184
2.r	.	2e-/ 2ee-	.	.
.	.	8e-/L 8ee-	.	.
.	.	8e-/J 8ee-	.	.
=185	=185	=185	=185	=185
2.r	.	2e-/ 2ee-	.	.
.	.	8e-/L 8g-X	.	.
.	.	8e-/J 8g-	.	.
!!LO:LB:g=original	!	!	!	!
=186	=186	=186	=186	=186
2.r	.	2e-/ 2g-X	.	.
.	.	8e-/L 8g-	.	.
.	.	8e-/J 8g-	.	.
=187	=187	=187	=187	=187
!	!	!LO:TX:b:i:t=poco riten.	!	!
2.r	.	8e-/L 8f	.	.
.	.	8e-/J 8f	.	.
.	.	4e-/ 4f	.	.
.	.	[4e-/ [4f	.	.
=188	=188	=188	=188	=188
2.r	.	8e-/L] 8f]	.	.
.	.	8e-/J 8f	.	.
.	.	4e-/ 4f	.	.
.	.	(4e-/ [4f	.	.
=189	=189	=189	=189	=189
!	!	!LO:TX:a:i:t=a tempo	!	!
4BBB-\	.	8d/) 8f]	.	.
!	!	!	!	!LO:DY:b
.	.	8r	.	p
.	.	(8qG</	.	.
4BB-\	.	(8F</L)	.	.
.	.	8E-</)	.	.
4BB-\	.	8D<'/	.	.
.	.	8E-<'/J	.	.
=190	=190	=190	=190	=190
!	!	!	!	!LO:HP:b
4BBB-\	.	8F<'/L	.	<
.	.	8G<'/	.	.
4BB-\	.	8A<'/	.	.
.	.	8B-<'/	.	.
4BB-\	.	8c'\	.	.
.	.	8d'\J	.	[[
=191	=191	=191	=191	=191
4BB-/	.	(8e-/L	.	.
.	.	8d/J	.	.
4F\	.	8c/)	.	.
.	.	8r	.	.
!	!	!LO:TX:b:i:t=legg.	!	!
4F\	.	(4e-'/ 4a 4ee-	.	.
!!LO:LB:g=original	!	!	!	!
=192	=192	=192	=192	=192
4BB-/	.	2a^\) 2ee- 2aa	.	.
4F\	.	.	.	.
4F\	.	4r	.	.
=193	=193	=193	=193	=193
4BBB-\	.	4r	.	.
.	.	(<8qA</	.	.
4BB-\	.	(8G</L)	.	.
.	.	8F</)	.	.
4BB-\	.	8E-<'/	.	.
.	.	8F<'/J	.	.
=194	=194	=194	=194	=194
!	!	!	!	!LO:HP:b
4BBB-\	.	8G<'/L	.	<
.	.	8A<'/	.	.
4BB-\	.	8B-<'/	.	.
.	.	8c'\	.	.
4BB-\	.	8d'\	.	.
.	.	8e-'\J	.	[[
=195	=195	=195	=195	=195
4BB-/	.	(8d/L	.	.
.	.	8c/J	.	.
4F\	.	8B-/)	.	.
.	.	8r	.	.
4F\	.	(4g'\ 4dd 4gg	.	.
=196	=196	=196	=196	=196
4BB-/	.	2dd^\) 2ff 2ddd	.	.
4F\	.	.	.	.
4F\	.	4r	.	.
=197	=197	=197	=197	=197
*^	*	*	*	*
4r	(2.G\	.	8r	.	.
!	!	!	!LO:TX:b:i:t=espr.	!	!
.	.	.	(8ee-\L	.	.
!	!	!	!	!	!LO:HP:b
4B-/ 4e-	.	.	8dd\	.	<
.	.	.	8ee-\	.	.
4B-/ 4e-	.	.	8ccc\	.	.
.	.	.	8bb-\J	.	[[
!!LO:LB:g=original	!	!	!	!	!
=198	=198	=198	=198	=198	=198
!LO:N:vis=2	!	!	!	!	!
4F/	2.F\)	.	[2.dd\)	.	.
4B-/ 4d	.	.	.	.	.
4B-/ 4d	.	.	.	.	.
=199	=199	=199	=199	=199	=199
!LO:N:vis=2	!	!	!	!	!
4E-/	2.E-\	.	8dd\L]	.	.
.	.	.	(8cc\	.	.
4A/ 4c 4f	.	.	8bn\	.	.
.	.	.	8cc\	.	.
4A/ 4c 4f	.	.	8aa\	.	.
.	.	.	8gg\J	.	.
=200	=200	=200	=200	=200	=200
!LO:N:vis=2	!	!	!	!	!
4D/	2.D\	.	[2.ff\)	.	.
4B-/ 4f	.	.	.	.	.
4B-/ 4f	.	.	.	.	.
*v	*v	*	*	*	*
=201	=201	=201	=201	=201
4D-X\	.	8ff\L]	.	.
!	!	!	!	!LO:HP:b
.	.	(8een\	.	<
4B-\ 4en	.	8dd#X\	.	.
.	.	8ee\	.	.
4B-\ 4e	.	8aa\	.	.
.	.	8gg\J	.	.
=202	=202	=202	=202	=202
4C/	.	8ffn\L	.	.
.	.	8een\	.	.
4B-\ 4en	.	8aa\	.	[
.	.	8gg\	.	.
4B-\ 4e	.	8ee\	.	.
.	.	8cc\J	.	.
=203	=203	=203	=203	=203
*^	*	*	*	*
!LO:N:vis=2	!	!	!	!	!
4G-X/	2.G-X\	.	8bn\L	.	.
.	.	.	8cc\	.	.
4B-/ 4e-X	.	.	8dd\	.	.
.	.	.	8cc\	.	.
4B-/ 4e-	.	.	8ee-\	.	.
.	.	.	8b\J	.	.
!!LO:LB:g=original	!	!	!	!	!
=204	=204	=204	=204	=204	=204
!LO:N:vis=2	!	!	!	!	!
4F/	2.F\	.	4cc\)	.	.
4A/ 4e-	.	.	4r	.	.
!	!	!	!	!	!LO:DY:b
4A/ 4e-	.	.	(4f/	.	p
*v	*v	*	*	*	*
=205	=205	=205	=205	=205
4BB-/	.	4dd\)	.	.
.	.	(8qg/	.	.
4F\	.	(8f/L)	.	.
.	.	8e-/)	.	.
!	!	!	!	!LO:HP:b
4F\	.	8d'/	.	<
.	.	8e-'/J	.	.
=206	=206	=206	=206	=206
4BB-/	.	8f'/L	.	.
.	.	8g'/	.	.
4F\	.	8a'/	.	.
.	.	8b-'/	.	.
4F\	.	8cc'/	.	.
.	.	8dd'/J	.	[[
=207	=207	=207	=207	=207
4BB-/	.	(8ee-\L	.	.
.	.	8dd\J	.	.
4F\	.	8cc\)	.	.
.	.	8r	.	.
!	!	!LO:TX:b:i:t=legg.	!	!
4F\	.	(4ff'\ 4gg 4fff	.	.
=208	=208	=208	=208	=208
4BB-/	.	4ee-'\) 4gg 4eee-	.	.
4F\	.	4r	.	.
4F\	.	(4dd'\ 4gg#X 4ddd	.	.
=209	=209	=209	=209	=209
4BB-/	.	4cc'\) 4aa 4ccc	.	.
.	.	(8qa/	.	.
4F\	.	(8g/L)	.	.
.	.	8f/)	.	.
!	!	!	!	!LO:HP:b
4F\	.	8e-'/	.	<
.	.	8f'/J	.	.
=210	=210	=210	=210	=210
4BB-/	.	8g'\L	.	.
.	.	8a'\	.	.
4F\	.	8b-'\	.	.
.	.	8cc'\	.	.
4F\	.	8dd'\	.	.
.	.	8ee-'\J	.	[[
=211	=211	=211	=211	=211
4BB-/	.	(8dd\L	.	.
.	.	8cc\J	.	.
4F\	.	8b-\)	.	.
.	.	8r	.	.
!	!	!LO:TX:b:i:t=legg.	!	!
4F\	.	(4ee-'\ 4ff 4eee-	.	.
=212	=212	=212	=212	=212
4BB-/	.	4dd'\) 4ff 4ddd	.	.
4F\	.	4r	.	.
4F\	.	(4cc'\ 4ff#X 4ccc	.	.
*clefG2	*	*	*	*
=213	=213	=213	=213	=213
*^	*	*	*	*
!LO:N:vis=2	!	!	!	!	!
4d-X/	2.d-\	.	8b-'\L) 8gg 8bb-	.	.
!	!	!	!	!	!LO:HP:b
.	.	.	(8b-\	.	<
4e-/ 4g	.	.	8an\	.	.
.	.	.	8b-\	.	.
4e-/ 4g	.	.	8cc\	.	.
.	.	.	8dd-X\J	.	[[
=214	=214	=214	=214	=214	=214
!LO:N:vis=2	!	!	!	!	!
4c/	2.c\	.	[2.ee-\)	.	.
4e-/ 4a-X	.	.	.	.	.
4e-/ 4a-	.	.	.	.	.
=215	=215	=215	=215	=215	=215
!LO:N:vis=2	!	!	!	!	!
4B-/	2.B-\	.	8ee-\L]	.	.
!	!	!	!	!	!LO:HP:b
.	.	.	(8dd-X\	.	<
4d-X/ 4g	.	.	8cc\	.	.
.	.	.	8dd-\	.	.
4d-/ 4g	.	.	8gg\	.	.
.	.	.	8ff\J	.	.
!!LO:LB:g=original	!	!	!	!	!
=216	=216	=216	=216	=216	=216
!LO:N:vis=2	!	!	!	!	!
4An/	2.A\	.	[2.ee-\)	.	.
4c/ 4f#X	.	.	.	.	.
4c/ 4f#	.	.	.	.	.
=217	=217	=217	=217	=217	=217
!LO:N:vis=2	!	!	!	!	!
!	!	!	!	!	!LO:HP:b
4A-X/	2.A-\	.	8ee-\L]	.	<
.	.	.	(8dd\	.	.
4c/ 4e-	.	.	8cc\	.	.
.	.	.	8bn\	.	.
4c/ 4e-	.	.	8cc\	.	.
.	.	.	8dd\J	.	.
=218	=218	=218	=218	=218	=218
!LO:N:vis=2	!	!	!	!	!
4G/	2.G\	.	8ee-\L	.	.
.	.	.	8dd\	.	.
4c/ 4e-	.	.	8cc\	.	.
.	.	.	8bn\	.	[
4c/ 4e-	.	.	8cc\	.	.
.	.	.	8ee-\J	.	.
*v	*v	*	*	*	*
=219	=219	=219	=219	=219
4F#X/ 4c 4d	.	4dd\)	.	.
!	!	!	!	!LO:DY:b
4r	.	(8d/L	.	p
.	.	8c#X/)	.	.
!	!	!	!	!LO:HP:b
4r	.	8d'/	.	<
.	.	8en'/J	.	.
=220	=220	=220	=220	=220
2.r	.	8f#X'/L	.	.
.	.	8g'/	.	.
.	.	8a'/	.	.
.	.	8bn'/	.	.
.	.	8cc'/	.	.
.	.	8cc#X'/J	.	[[
*clefF4	*	*	*	*
!!LO:LB:g=original	!	!	!	!
=221||	=221||	=221||	=221||	=221||
*k[f#]	*	*k[f#]	*	*
!	!	!	!	!LO:DY:b
4GG/	.	8dd\L	.	p
.	.	(8dd\J	.	.
4D\ 4B	.	[2bb\)	.	.
4D\ 4B	.	.	.	.
=222	=222	=222	=222	=222
4AA/	.	8bb\L]	.	.
.	.	(8aa\J	.	.
4D\ 4c	.	[2cc\)	.	.
4D\ 4c	.	.	.	.
=223	=223	=223	=223	=223
!	!	!	!	!LO:HP:b
4BB/	.	8cc\L]	.	<
.	.	(8b\J	.	.
4G\ 4d	.	[2gg\)	.	.
4G\ 4d	.	.	.	.
=224	=224	=224	=224	=224
4C/	.	8gg\L]	.	.
.	.	(8ff#\	.	.
4F#\ 4d#X	.	8dd#X\	.	[
.	.	8a\J	.	.
4F#\ 4d#	.	[4ff#\)	.	.
=225	=225	=225	=225	=225
4C#X/	.	8ff#\L]	.	.
.	.	(8g\J	.	.
4G\ 4e	.	[2ee\)	.	.
4G\ 4e	.	.	.	.
=226	=226	=226	=226	=226
4D\	.	8ee\L]	.	.
.	.	(8dd\	.	.
4G\ 4B	.	8b\	.	.
.	.	8g\J	.	.
4G\ 4B	.	[4e/)	.	.
=227	=227	=227	=227	=227
4D\	.	8e/L]	.	.
.	.	(8d/J	.	.
4F#\ 4c	.	[2cc\)	.	.
4F#\ 4c	.	.	.	.
!!LO:LB:g=original	!	!	!	!
=228	=228	=228	=228	=228
4GG/	.	8cc/L]	.	.
.	.	(8b/	.	.
4D\ 4B	.	8g/	.	.
.	.	8e/J	.	.
4D\ 4B	.	[4d/)	.	.
=229	=229	=229	=229	=229
4GG/	.	8d/L]	.	.
!	!	!	!	!LO:DY:b
.	.	(8dd/J	.	p
4D\ 4B	.	[2bb\)	.	.
4D\ 4B	.	.	.	.
=230	=230	=230	=230	=230
4AA/	.	8bb\L]	.	.
.	.	(8aa\J	.	.
4D\ 4c	.	[2cc\)	.	.
4D\ 4c	.	.	.	.
=231	=231	=231	=231	=231
4BB/	.	8cc\L]	.	.
.	.	(8b\J	.	.
4G\ 4d	.	[2gg\)	.	.
4G\ 4d	.	.	.	.
=232	=232	=232	=232	=232
4C/	.	8gg\L]	.	.
.	.	(8ff#\	.	.
4F#\ 4d#X	.	8dd#X\	.	.
.	.	8a\J	.	.
4F#\ 4d#	.	[4ff#\)	.	.
=233	=233	=233	=233	=233
4C#X/	.	8ff#\L]	.	.
.	.	(8b\J	.	.
4G\ 4e	.	[2ee\)	.	.
4G\ 4e	.	.	.	.
!!LO:LB:g=original	!	!	!	!
=234	=234	=234	=234	=234
4D\	.	8ee/L]	.	.
.	.	(8dd/	.	.
4G\ 4B	.	8b/	.	.
.	.	8g/	.	.
4G\ 4B	.	8e/	.	.
.	.	8g/J)	.	.
=235	=235	=235	=235	=235
!	!	!	!	!LO:HP:b:t=crescendo
4D#X\	.	(8f#/L	.	<
.	.	8g/	.	.
4F#\ 4c	.	8a/	.	.
.	.	8b/J	.	.
4F#\ 4c	.	[4cc\)	.	.
=236	=236	=236	=236	=236
4E\	.	8cc/L]	.	.
!	!	!LO:TX:b:i:t=poco	!	!
.	.	(8b/	.	.
4G\ 4B	.	8a/	.	.
.	.	8g/	.	.
4G\ 4B	.	8f#/	.	.
!	!	!LO:TX:b:i:t=a	!	!
.	.	8g/J)	.	.
=237	=237	=237	=237	=237
!	!	!LO:TX:b:I:t=poco	!	!
4E#X\	.	(8g#X/L	.	.
.	.	8a/	.	.
4G#X\ 4d	.	8b/	.	.
.	.	8cc#X/J	.	.
4G#\ 4d	.	[4dd\)	.	.
=238	=238	=238	=238	=238
4F#\	.	(8dd\L]	.	.
.	.	8cc#X\	.	.
4A\ 4c#X	.	8b\	.	.
.	.	8a\	.	.
4A\ 4c#	.	8g#X\	.	.
.	.	8a\J)	.	.
=239	=239	=239	=239	=239
4G#X\	.	(8b\L	.	.
.	.	8cc#X\	.	.
4B\ 4fn	.	8dd\	.	.
.	.	8ee\J	.	.
4B\ 4f	.	[4ffn\)	.	.
!!LO:LB:g=original	!	!	!	!
=240	=240	=240	=240	=240
4A\	.	8ff\L]	.	.
.	.	(8cc#X\	.	.
4d\ 4fn	.	8dd\	.	.
.	.	8ee\J	.	.
4d\ 4f	.	[4ffn\)	.	.
=241	=241	=241	=241	=241
4B-X\	.	8ff\L]	.	.
.	.	(8cc#X\	.	.
!	!	!	!	!LO:HP:b
4d\ 4fn	.	8dd\	.	<
.	.	8ee\	.	.
4d\ 4f	.	8ffn\	.	.
.	.	8cc#\J	.	.
=242	=242	=242	=242	=242
4A\	.	8dd\L	.	.
.	.	8ee\	.	.
4d\ 4fn	.	8ffn\)	.	[
.	.	(8cc\	.	.
4d\ 4f	.	8dd\	.	.
.	.	8ff\J	.	.
=243||	=243||	=243||	=243||	=243||
*k[f#c#g#]	*	*k[f#c#g#]	*	*
*M6/8	*	*M6/8	*	*
!	!	!LO:TX:a:B:t=Allegretto con brio.	!	!
!	!	!LO:TX:a:t=Akt III pieśń Kostryna z chórem	!	!
4B#X\ 4d 4g#X	.	4ee\)	.	.
!	!	!	!	!LO:DY:b
8E\	.	8e/ 8ee	.	f
4E\	.	4e/ 4ee	.	.
8E\	.	8e/ 8ee	.	.
=244	=244	=244	=244	=244
4E\	.	4e/ 4ee	.	.
8E\	.	8e/ 8ee	.	.
4E\	.	4e/ 4ee	.	.
8E\	.	8e/ 8ee	.	.
=245	=245	=245	=245	=245
4E\	.	4e/ 4ee	.	.
*clefG2	*	*	*	*
.	.	(16qqff#/LL	.	.
.	.	16qqgg#/JJ	.	.
8B^/ 8f#	.	8dd^\) 8aa	.	.
4e/ 4g#	.	4b\ 4ee 4gg#	.	.
8B/ 8a	.	8dd'\ 8ff#	.	.
!!LO:LB:g=original	!	!	!	!
=246	=246	=246	=246	=246
4e/ 4g#	.	4b\ 4ee	.	.
*clefF4	*	*	*	*
8FF#/ 8F#	.	8c#/ 8f# 8a	.	.
4CC#/ 4C#	.	4c#/ 4e 4g#	.	.
8DD/ 8D	.	8A/ 8d 8f#	.	.
=247	=247	=247	=247	=247
4EE/ 4E	.	4G#/ 4B 4e	.	.
8FF#/ 8F#	.	8A/ 8B	.	.
4EE/ 4E	.	4G#/ 4B 4e	.	.
8FF#/ 8F#	.	8A/ 8B	.	.
=248	=248	=248	=248	=248
4EE/ 4E	.	4G#/ 4B 4e	.	.
8FF#/ 8F#	.	8A/ 8B	.	.
!	!	!LO:N:vis=8	!	!
4BBB/ 4BB	.	8.F#/L 8.A 8.d	.	.
.	.	16c#/K	.	.
8EE/ 8D	.	8G#/J 8B	.	.
=249	=249	=249	=249	=249
8AA\ 8C#	.	8c#/L	.	.
8r	.	16r	.	.
.	.	16C#</K 16A<	.	.
8r	.	8E</J 8B<	.	.
[4.AAA\ [4.AA	.	(8A/L 8c#	.	.
.	.	8e/)	.	.
.	.	8E/J 8B	.	.
=250	=250	=250	=250	=250
!	!	!	!	!LO:HP:a
4AAA\] 4AA]	.	8A/L 8c#	.	>
.	.	16r	.	.
.	.	16C#</K 16A<	.	.
8r	.	8E</J 8B<	.	.
[4.AAA\ [4.AA	.	(8A<\L 8c#<	.	.
.	.	8e/)	.	.
.	.	8E<\J	.	]]
=251	=251	=251	=251	=251
*	*	*^	*	*
!	!	!	!LO:TX:t=P:problem= tekst nad zapisem nutowym	!	!
!	!	!	!	!	!LO:DY:b
4AAA\] 4AA]	.	8e/L	4c#\	Pa-	p
.	.	8f#/	.	-nie	.
8AA/ 8E	.	8g#/J	8c#\	nsz	.
4AA/ 4E	.	4a/	4c#\	u-	.
8AA/ 8E	.	8a/	8c#\	-ko-	.
!!LO:LB:g=original	!	!	!	!	!
=252	=252	=252	=252	=252	=252
4AA/ 4E	.	(8a/L	4d\	-cha-	.
.	.	8g#/)	.	-ny,	.
8AA/ 8E	.	8a/J	8d\	dla	.
4AA/ 4E	.	4g#/	4d\	cie-	.
8AA/ 8E	.	8f#/	8d\	-bie	.
=253	=253	=253	=253	=253	=253
4AA/ 4E	.	(8e/L	4c#\	pły-	.
.	.	8f#/)	.	.	.
8AA/ 8E	.	8g#/J	8c#\	-nie	.
4AA/ 4E	.	4c#/ 4a	4.ryy	wi-	.
8AA/ 8E	.	8e/ 8cc#	.	-na	.
=254	=254	=254	=254	=254	=254
!	!	!	!	!	!LO:HP:b
4AA/ 4E	.	[2.ee/	(8e\L	zdrój	<
.	.	.	8f#\)	.	.
8AA/ 8E	.	.	8g#\J	.	.
4AA/ 4E	.	.	4a\	.	.
8AA/ 8E	.	.	8cc#\	.	.
=255	=255	=255	=255	=255	=255
4AA/ 4E	.	4.ee/_	4f#\	.	.
8AA/ 8E	.	.	8g#\	.	.
4AA/ 4E	.	8ee/]	4a\	.	.
.	.	8r	.	.	.
8AA/ 8E	.	8r	8a\ 8cc#	.	.
=256	=256	=256	=256	=256	=256
4AA/ 4E	.	4cc#\ 4ee	4.ryy	.	.
8AA/ 8E	.	8r	.	.	.
4AA/ 4E	.	[4.e^/	[4.c#\	.	.
8AA/ 8E	.	.	.	.	.
=257	=257	=257	=257	=257	=257
4AA/ 4E	.	8e/L]	4c#\]	.	.
.	.	8f#/	.	.	.
!	!	!	!	!	!LO:HP:b
8AA/ 8E	.	8g#/J	8c#\	.	<
4AA/ 4F#	.	8a/L	4c#\	.	.
.	.	8cc#/	.	.	.
8AA/ 8F#	.	8b/J	8c#\	.	.
!!LO:LB:g=original	!	!	!	!	!
=258	=258	=258	=258	=258	=258
4BB/ 4F#	.	(4.a/	4d\	.	.
8BB/ 8F#	.	.	8d\	.	.
4BB/ 4E	.	4g#/)	4d\	.	.
8BB/ 8E	.	8d/ 8g# 8dd	8ryy	.	[
*	*	*v	*v	*	*
=259	=259	=259	=259	=259
4AA/ 4E	.	4c#/ 4g# 4cc#	.	.
8AA/ 8E	.	8c#/ 8g#	.	.
4FF#/ 4F#	.	4c#/ 4f# 4a	.	.
8DD/ 8D	.	8d/ 8f# 8b	.	.
=260	=260	=260	=260	=260
4CC#/ 4C#	.	4e/ 4g# 4cc#	.	.
8C#/	.	8c#/	.	.
4C#/	.	4c#/	.	.
8FF#/ 8F#	.	8d#X/ 8a 8b#X	.	.
=261	=261	=261	=261	=261
4CC#/ 4C#	.	4e/ 4g# 4cc#	.	.
8C#/	.	8e/ 8g#	.	.
4FF#/ 4F#	.	4c#/ 4f# 4a	.	.
8DD/ 8D	.	8dn/ 8f# 8b	.	.
=262	=262	=262	=262	=262
4CC#/ 4C#	.	4e/ 4g# 4cc#	.	.
8C#/	.	8c#/	.	.
4C#/	.	4c#/	.	.
8FF#/ 8F#	.	8d#X/ 8a 8b	.	.
=263	=263	=263	=263	=263
4CC#/ 4C#	.	4e/ 4g# 4cc#	.	.
8r	.	8r	.	.
!	!	!	!	!LO:DY:b
((4.AAA#X^>/ 4.AA#X	.	[4.e^>/ [4.g# [4.ee	.	f
!!LO:LB:g=original	!	!	!	!
=264	=264	=264	=264	=264
*	*	*^	*	*
!	!	!LO:N:vis=4	!	!	!
8BBB/)) 8BB	.	8ee/L]	8e\] 8g#]	.	.
8r	.	8dd#X'/	8r	.	.
8r	.	8cc#'/J	8r	.	.
8BB\ 8A	.	8b/L	8d#X\	.	.
8r	.	8a/	8r	.	.
8r	.	8f#/J	8r	.	.
*	*	*v	*v	*	*
=265	=265	=265	=265	=265
8E\ 8G#	.	8e/	.	.
8r	.	8r	.	.
8r	.	8r	.	.
((4.FF#/ 4.F#	.	[4.g#^\ [4.a#X [4.ee [4.gg#	.	.
=266	=266	=266	=266	=266
*	*	*^	*	*
!	!	!	!	!	!LO:HP:b
8BBB/)) 8BB	.	8g#\L] 8a#] 8ee] 8gg#]	4.ryy	.	>
8r	.	8f#\ 8dd#X 8ff#	.	.	.
8r	.	8e\J 8cc# 8ee	.	.	.
8BB\ 8B	.	8dd#/L	8d#X\ 8an	.	.
8r	.	8cc#/	8ryy	.	.
8r	.	8dd#/J	8a\	.	.
*	*	*v	*v	*	*
=267	=267	=267	=267	=267
4E\ 4B	.	4g#\ 4ee	.	]
(8E\	.	(8ee\	.	.
4EE/)	.	4e/)	.	.
(8E\	.	(8ee\	.	.
=268	=268	=268	=268	=268
!	!	!	!	!LO:DY:b
4EE/)	.	4e/)	.	p
(8E\	.	(8ee\	.	.
4EE/)	.	4eee\)	.	.
8E\	.	8ee\	.	.
=269	=269	=269	=269	=269
!	!	!	!	!LO:DY:b
4DD/	.	4ee\ 4ggn 4cccn 4eee	.	f
!	!	!	!	!LO:DY:b
8D\ 8A	.	8c#/ 8gn	.	p
4D\ 4A	.	4c#/ 4f#	.	.
8D\ 8cn	.	8f#/ 8ee	.	.
!!LO:LB:g=original	!	!	!	!
=270	=270	=270	=270	=270
*	*	*^	*	*
4D\ 4B	.	4dd/	4gn\	.	.
!	!	!LO:N:vis=4	!	!	!
8D\ 8B	.	8b/	8g\	.	.
4D\ 4B	.	4g/	4d\	.	.
!	!	!LO:N:vis=4	!	!	!
8D\ 8B	.	8b/	8g\	.	.
=271	=271	=271	=271	=271	=271
4D\ 4A	.	4ccn/	4e\	.	.
8D\ 8cn	.	8e/	8ryy	.	.
4D\ 4c	.	8f#/L	4d\	.	.
.	.	8gn/J	.	.	.
!	!	!LO:N:vis=4	!	!	!
8D\	.	8f#/ 8a	8cn\	.	.
*	*	*v	*v	*	*
=272	=272	=272	=272	=272
4GG#/	.	4B/ 4gn 4b	.	.
8D\	.	8B/ 8d	.	.
4GG#/	.	4g/ 4b	.	.
8D\	.	8B/ 8g 8b	.	.
=273	=273	=273	=273	=273
!LO:TX:a:i:t=poco piu lento	!	!	!	!
4EE#X/ 4D	.	4B/ 4g#X 4b	.	.
8r	.	8b/	.	.
4r	.	(>8b/L	.	.
.	.	8a/)	.	.
8r	.	8g#/J	.	.
=274	=274	=274	=274	=274
*^	*	*^	*	*
4.r	4.ryy	.	[>4.a/	4.ryy	.	.
[4.A/	(4.F#\	.	4a/]	(4.c#\	.	.
.	.	.	8a/	.	.	.
*	*	*	*v	*v	*	*
=275	=275	=275	=275	=275	=275
4A/]	4Gn\)	.	4e\) 4cc#	.	.
8r	2ryy	.	8cc#\	.	.
4r	.	.	8cc#\L	.	.
.	.	.	8b\J	.	.
8r	.	.	8a/	.	.
*v	*v	*	*	*	*
!!LO:LB:g=original	!	!	!	!
=276	=276	=276	=276	=276
4.r	.	4dd\	.	.
.	.	8r	.	.
!	!	!LO:TX:b:i:t=riten.	!	!
8F#~\L 8A	.	8a~\L 8dd	.	.
8E~\ 8A	.	8a~\ 8cc#	.	.
8D~\J 8A	.	8a~\J 8b	.	.
=277	=277	=277	=277	=277
[4.E\ [4.d	.	[4.a\ [4.ff#	.	.
4E\] 4d]	.	4a\] 4ff#]	.	.
8E\ 8d	.	8g#\ 8ee	.	.
=278||	=278||	=278||	=278||	=278||
*M3/4	*	*M3/4	*	*
!	!	!LO:TX:a:B:t=Allegro. Tempo di Mazurka.	!	!
4A\ 4c#X	.	4e/ 4a	.	.
!	!	!	!	!LO:HP:b
4r	.	4r	.	>
4AA/ 4E	.	4r	.	.
=279	=279	=279	=279	=279
2AA/ 2E	.	2.r	.	]]
4AA/ 4E	.	.	.	.
=280||	=280||	=280||	=280||	=280||
*k[f#]	*	*k[f#]	*	*
!	!	!LO:TX:a:t=Chór weselny Akt II.	!	!
!	!	!	!	!LO:DY:b
*tremolo	*	*	*	*
32DD/LLL	.	4r	.	p
32AA/	.	.	.	.
32DD/	.	.	.	.
32AA/	.	.	.	.
32DD/	.	.	.	.
32AA/	.	.	.	.
32DD/	.	.	.	.
32AA/	.	.	.	.
32DD/	.	(8.A/L	.	.
32AA/	.	.	.	.
32DD/	.	.	.	.
32AA/	.	.	.	.
32DD/	.	.	.	.
32AA/	.	.	.	.
32DD/	.	16c/Jk	.	.
32AA/	.	.	.	.
32DD/	.	4e/	.	.
32AA/	.	.	.	.
32DD/	.	.	.	.
32AA/	.	.	.	.
32DD/	.	.	.	.
32AA/	.	.	.	.
32DD/	.	.	.	.
32AA/JJJ	.	.	.	.
=281	=281	=281	=281	=281
32DD/LLL	.	8d/L)	.	.
32AA/	.	.	.	.
32DD/	.	.	.	.
32AA/	.	.	.	.
32DD/	.	(8c#X/	.	.
32AA/	.	.	.	.
32DD/	.	.	.	.
32AA/	.	.	.	.
32DD/	.	8A/	.	.
32AA/	.	.	.	.
32DD/	.	.	.	.
32AA/	.	.	.	.
32DD/	.	8c#/	.	.
32AA/	.	.	.	.
32DD/	.	.	.	.
32AA/	.	.	.	.
32DD/	.	8e/	.	.
32AA/	.	.	.	.
32DD/	.	.	.	.
32AA/	.	.	.	.
32DD/	.	8B/J)	.	.
32AA/	.	.	.	.
32DD/	.	.	.	.
32AA/JJJ	.	.	.	.
!!LO:LB:g=original	!	!	!	!
=282	=282	=282	=282	=282
*	*	*^	*	*
32DD/LLL	.	4r	[2.c\	.	.
32AA/	.	.	.	.	.
32DD/	.	.	.	.	.
32AA/	.	.	.	.	.
32DD/	.	.	.	.	.
32AA/	.	.	.	.	.
32DD/	.	.	.	.	.
32AA/	.	.	.	.	.
32DD/	.	(8.e/L	.	.	.
32AA/	.	.	.	.	.
32DD/	.	.	.	.	.
32AA/	.	.	.	.	.
32DD/	.	.	.	.	.
32AA/	.	.	.	.	.
32DD/	.	16g/Jk	.	.	.
32AA/	.	.	.	.	.
32DD/	.	4b/	.	.	.
32AA/	.	.	.	.	.
32DD/	.	.	.	.	.
32AA/	.	.	.	.	.
32DD/	.	.	.	.	.
32AA/	.	.	.	.	.
32DD/	.	.	.	.	.
32AA/JJJ	.	.	.	.	.
=283	=283	=283	=283	=283	=283
32DD/LLL	.	8a/L)	4c\_	.	.
32AA/	.	.	.	.	.
32DD/	.	.	.	.	.
32AA/	.	.	.	.	.
32DD/	.	(8g#X/	.	.	.
32AA/	.	.	.	.	.
32DD/	.	.	.	.	.
32AA/	.	.	.	.	.
32DD/	.	8e/	8c\]	.	.
32AA/	.	.	.	.	.
32DD/	.	.	.	.	.
32AA/	.	.	.	.	.
32DD/	.	8gn/	8r	.	.
32AA/	.	.	.	.	.
32DD/	.	.	.	.	.
32AA/	.	.	.	.	.
32DD/	.	8b/	4r	.	.
32AA/	.	.	.	.	.
32DD/	.	.	.	.	.
32AA/	.	.	.	.	.
32DD/	.	8f#/J)	.	.	.
32AA/	.	.	.	.	.
32DD/	.	.	.	.	.
32AA/JJJ	.	.	.	.	.
=284	=284	=284	=284	=284	=284
!	!	!	!	!	!LO:HP:b
32DD/LLL	.	4r	[2.g\	.	<
32AA/	.	.	.	.	.
32DD/	.	.	.	.	.
32AA/	.	.	.	.	.
32DD/	.	.	.	.	.
32AA/	.	.	.	.	.
32DD/	.	.	.	.	.
32AA/	.	.	.	.	.
!	!	!LO:TX:b:i:t=poco a poco	!	!	!
32DD/	.	8.a/L	.	.	.
32AA/	.	.	.	.	.
32DD/	.	.	.	.	.
32AA/	.	.	.	.	.
32DD/	.	.	.	.	.
32AA/	.	.	.	.	.
32DD/	.	16cc/Jk	.	.	.
32AA/	.	.	.	.	.
32DD/	.	4ee/	.	.	.
32AA/	.	.	.	.	.
32DD/	.	.	.	.	.
32AA/	.	.	.	.	.
32DD/	.	.	.	.	.
32AA/	.	.	.	.	.
32DD/	.	.	.	.	.
32AA/JJJ	.	.	.	.	.
=285	=285	=285	=285	=285	=285
32DD/LLL	.	8dd/L	2.g\_	.	.
32AA/	.	.	.	.	.
32DD/	.	.	.	.	.
32AA/	.	.	.	.	.
32DD/	.	8cc#X/	.	.	.
32AA/	.	.	.	.	.
32DD/	.	.	.	.	.
32AA/	.	.	.	.	.
32DD/	.	8a/	.	.	.
32AA/	.	.	.	.	.
32DD/	.	.	.	.	.
32AA/	.	.	.	.	.
32DD/	.	8ccn/	.	.	.
32AA/	.	.	.	.	.
32DD/	.	.	.	.	.
32AA/	.	.	.	.	.
32DD/	.	8ee/	.	.	.
32AA/	.	.	.	.	.
32DD/	.	.	.	.	.
32AA/	.	.	.	.	.
32DD/	.	8b/J	.	.	.
32AA/	.	.	.	.	.
32DD/	.	.	.	.	.
32AA/JJJ	.	.	.	.	.
*Xtremolo	*	*	*	*	*
*	*	*v	*v	*	*
=286	=286	=286	=286	=286
!	!	!	!	!LO:DY:b
[2.DD/ [2.AA	.	4g/] 4cc	.	f
.	.	(8.ff#\L	.	.
.	.	16aa\K	.	.
.	.	8ff#\	.	.
.	.	8ee\J	.	.
=287	=287	=287	=287	=287
4DD/] 4AA]	.	8.dd\L)	.	.
.	.	(16ff#\Jk	.	.
4DD/ 4AA	.	4a/)	.	.
4DD/ 4AA	.	4a\ 4ee 4aa	.	.
!!LO:LB:g=original	!	!	!	!
=288	=288	=288	=288	=288
[2.DD/ [2.AA	.	4a'\ 4dd 4aa	.	.
.	.	(8.f#/L	.	.
.	.	16a/K	.	.
.	.	8f#/	.	.
.	.	8e/J	.	.
=289	=289	=289	=289	=289
4DD/] 4AA]	.	8.d/L	.	.
.	.	16f#/Jk	.	.
4DD/ 4AA	.	4A/)	.	.
4DD/ 4AA	.	4A/ 4e 4a	.	.
=290	=290	=290	=290	=290
4DD/ 4AA	.	4A/ 4d 4a	.	.
4r	.	(8.a/L	.	.
.	.	16cc/Jk	.	.
4r	.	[4e^>/)	.	.
=291	=291	=291	=291	=291
4DD/ 4AA	.	4e/]	.	.
4r	.	(8.f#/L	.	.
.	.	16a/Jk	.	.
!	!	!LO:TX:b:i:t=poco ritard.	!	!
4r	.	[4d^>/)	.	.
=292	=292	=292	=292	=292
4DD/ 4AA	.	4d/]	.	.
4r	.	(8.e/L	.	.
.	.	16a/Jk	.	.
4r	.	[4c^>/)	.	.
=293	=293	=293	=293	=293
!	!	!	!	!LO:HP:b
4DD/ 4AA	.	4c/]	.	>
4r	.	8.B/L	.	.
.	.	16d/Jk	.	.
4r	.	4A^>/	.	]]
!!LO:LB:g=original	!	!	!	!
=294	=294	=294	=294	=294
*	*	*^	*	*
!	!	!LO:TX:a:B:t=più moderato.	!	!	!
!	!	!LO:TX:t=P:problem= tekst nad zapisem nutowym	!	!	!LO:DY:b
2G\ 2d	.	(8dd/L	2b\	Nie	p
.	.	8gg/J	.	od-	.
.	.	([2dd/	.	-wra-	.
4G\ 4c	.	.	4a\	.	.
=295	=295	=295	=295	=295	=295
2G\ 2B	.	8dd/L]	2g\	-caj	.
.	.	8cc/J))	.	czo-	.
.	.	([2b/	.	-ła	.
4G\ 4c	.	.	4e\	.	.
=296	=296	=296	=296	=296	=296
2G\ 2d	.	8b/L]	2g\	na-	.
.	.	8ee/J)	.	-do-	.
.	.	4dd/	.	-bna	.
4G\ 4c	.	(8b/L	4e\	dziew-	.
.	.	8a/J	.	.	.
=297	=297	=297	=297	=297	=297
2G\ 2B	.	8g/L	2d\	-czy-	.
.	.	8cc/J	.	.	.
.	.	4b/)	.	-no	.
4GG/ 4G	.	(8e/L	4c\	.	.
.	.	8f#/J	.	.	.
=298	=298	=298	=298	=298	=298
2GG/ 2G	.	2d/)	2B\	.	.
!	!	!	!	!	!LO:DY:b
4GG/ 4D	.	(8e/L	4c\	.	p
.	.	8f#/J	.	.	.
=299	=299	=299	=299	=299	=299
2GG/ 2G	.	2d/)	2B\	.	.
4GG/ 4D	.	(8e/L	4c\	.	.
.	.	8f#/J	.	.	.
=300	=300	=300	=300	=300	=300
2GG/ 2G	.	2d/)	2B\	.	.
4GG/ 4D	.	(8e/L	4c\	.	.
.	.	8f#/J	.	.	.
!!LO:LB:g=original	!	!	!	!	!
=301	=301	=301	=301	=301	=301
2GG/ 2G	.	2d/)	2B\	.	.
4GG/ 4D	.	8e/L	4c\	.	.
.	.	8f#/J	.	.	.
=302	=302	=302	=302	=302	=302
!	!	!	!	!	!LO:DY:b
[2.GG/ [2.D	.	8.gg/L	[2.dd\	.	f
!	!	!LO:TX:b:i:t=animato	!	!	!
.	.	(16bb/Jk	.	.	.
.	.	8ddd/L)	.	.	.
.	.	(8ccc#X/	.	.	.
.	.	8gg/	.	.	.
.	.	8cccn/J	.	.	.
=303	=303	=303	=303	=303	=303
4GG/] 4D]	.	8.bb/L)	4dd\]	.	.
.	.	(16gg/Jk	.	.	.
4GG/ 4D	.	4ee/)	2ryy	.	.
4GG/ 4D	.	4bb/	.	.	.
=304	=304	=304	=304	=304	=304
[2.GG/ [2.D	.	8.g/L	[2.d\	.	.
.	.	(16b/Jk	.	.	.
.	.	8dd/L)	.	.	.
.	.	(8cc#X/	.	.	.
.	.	8g/	.	.	.
.	.	8ccn/J	.	.	.
=305	=305	=305	=305	=305	=305
4GG/] 4D]	.	8.b/L)	4d/]	.	.
.	.	(16g/Jk	.	.	.
4GG/ 4D	.	4e/)	2ryy	.	.
4GG/ 4D	.	4g'/	.	.	.
*	*	*v	*v	*	*
=306	=306	=306	=306	=306
[2.GG/ [2.D	.	8.b/L	.	.
.	.	(16g/Jk	.	.
.	.	4e/)	.	.
.	.	4g'/	.	.
=307	=307	=307	=307	=307
4GG/] 4D]	.	8.b/L	.	.
.	.	(16g/Jk	.	.
4GG'/ 4D	.	4e/)	.	.
4GG'/ 4D	.	4b'\	.	.
!!LO:LB:g=original	!	!	!	!
=308	=308	=308	=308	=308
*	*	*^	*	*
!	!	!LO:TX:b:B:t=piu moderato.	!	!	!
!	!	!LO:TX:t=P:problem= tekst nad zapisem nutowym	!	!	!LO:DY:b
[2.G\ [2.c	.	8a'/L	[2.e\	Mąż	p
.	.	8cc'/J	.	na	.
.	.	4b/	.	cie-	.
.	.	4a/	.	-bie	.
=309	=309	=309	=309	=309	=309
*^	*	*	*	*	*
2c\]	2G\]	.	4b/	2e\]	wo-	.
.	.	.	4e/	.	-ła	.
(8B/L	4G\	.	8r	4ryy	.	.
8A/J	.	.	8e/ 8g	.	.	.
*	*	*	*v	*v	*	*
=310	=310	=310	=310	=310	=310
!	!	!	!	!	!LO:HP:b
2c/)	2G\	.	((8f#/L	.	<
.	.	.	8f#/J) 8a	.	.
.	.	.	4a\) 4cc	.	.
4A/ 4c	4G\	.	4cc\ 4ee	.	[[
=311	=311	=311	=311	=311	=311
!	!	!	!	!	!LO:HP:b
(8d/L	2G\	.	(2b\ 2dd	.	>
8g/J	.	.	.	.	.
4f#/)	.	.	.	.	.
8e/L	4G\	.	4g/) 4b	.	]]
8d/J	.	.	.	.	.
*v	*v	*	*	*	*
=312	=312	=312	=312	=312
*	*	*^	*	*
[2.G\ [2.c	.	8a/L	[2.e\	.	.
.	.	8cc/J	.	.	.
.	.	4b/	.	.	.
.	.	4a/	.	.	.
=313	=313	=313	=313	=313	=313
*^	*	*	*	*	*
2c/]	2G\]	.	4b/	2e\]	.	.
.	.	.	4e/	.	.	.
8B/L	4G\	.	8r	4ryy	.	.
8A/J	.	.	8e/ 8g	.	.	.
*v	*v	*	*	*	*	*
*	*	*v	*v	*	*
=314	=314	=314	=314	=314
!LO:TX:b:i:t=poco rit.	!	!	!	!LO:HP:b
2G;\ 2A 2c	.	(8f#/L	.	<
.	.	8f#/J) 8a	.	.
.	.	(8a\ 8cc	.	.
.	.	4dd;\) 4ff#	.	.
4G\ 4A 4c	.	.	.	.
.	.	8cc'\ 8ee	.	[[
!!LO:LB:g=original	!	!	!	!
=315	=315	=315	=315	=315
*^	*	*	*	*
!	!	!	!	!	!LO:HP:b
(8d/	4G\	.	2.b\ 2.dd	.	>]
4f#/	.	.	.	.	.
.	2ryy	.	.	.	.
8a/)	.	.	.	.	.
8g/L	.	.	.	.	.
8e/J	.	.	.	.	.
*v	*v	*	*	*	*
=316	=316	=316	=316	=316
*	*	*^	*	*
!	!	!	!	!	!LO:DY:b
[2.GG/ [2.D	.	8.gg/L	2.dd\	.	f
!	!	!LO:TX:b:i:t=animato	!	!	!
.	.	(16bb/Jk	.	.	.
.	.	8ddd/L)	.	.	.
.	.	(8ccc#X/	.	.	.
.	.	8gg/	.	.	.
.	.	8cccn/J	.	.	.
=317	=317	=317	=317	=317	=317
4GG/] 4D]	.	8.bb/L)	4dd\	.	.
.	.	(16gg/Jk	.	.	.
4GG/ 4D	.	4ee/)	2ryy	.	.
4GG/ 4D	.	4bb/	.	.	.
=318	=318	=318	=318	=318	=318
[2.GG/ [2.D	.	8.g/L	2.d\	.	.
.	.	(16b/Jk	.	.	.
.	.	8dd/L)	.	.	.
.	.	(8cc#X/	.	.	.
.	.	8g/	.	.	.
.	.	8ccn/J	.	.	.
=319	=319	=319	=319	=319	=319
4GG/] 4D]	.	8.b/L)	4d\	.	.
.	.	(16g/Jk	.	.	.
4GG'/ 4D	.	4e/)	2ryy	.	.
4GG'/ 4D	.	4g'/	.	.	.
*	*	*v	*v	*	*
=320	=320	=320	=320	=320
[2.GG/ [2.D	.	8.b/L	.	.
.	.	(16g/Jk	.	.
.	.	4e/)	.	.
.	.	4g'/	.	.
=321	=321	=321	=321	=321
4GG/] 4D]	.	8.b/L	.	.
.	.	(16g/Jk	.	.
4GG'/ 4D	.	4e/)	.	.
4GG'/ 4D	.	4b'\	.	.
!!LO:LB:g=original	!	!	!	!
=322	=322	=322	=322	=322
*^	*	*^	*	*
(8c/L	4D\	.	[2.dd/	(8a\L	.	.
8d/J	.	.	.	8b\J	.	.
4e/)	2ryy	.	.	4cc\)	.	.
4d/	.	.	.	4b\	.	.
*v	*v	*	*	*	*	*
=323	=323	=323	=323	=323	=323
(>8c/L	.	2.dd/]	(8a\L	.	.
8d/J	.	.	8b\J	.	.
4G/)	.	.	4e\)	.	.
4A/	.	.	4f#\	.	.
=324	=324	=324	=324	=324	=324
*^	*	*	*	*	*
(8B/L	4D\	.	[2.dd/	(8g\L	.	.
8c/J	.	.	.	8a\J	.	.
4d/)	2ryy	.	.	4b\)	.	.
4e'/	.	.	.	4cc'\	.	.
*v	*v	*	*	*	*	*
=325	=325	=325	=325	=325	=325
(>4d/	.	2.dd/]	(4b\	.	.
4A/)	.	.	4f#\)	.	.
4B'/	.	.	4g'\	.	.
=326	=326	=326	=326	=326	=326
*^	*	*	*	*	*
(8c/L	4D\	.	[2.dd/	(8a\L	.	.
8d/J	.	.	.	8b\J	.	.
4e/)	2ryy	.	.	4cc\)	.	.
4d'/	.	.	.	4b'\	.	.
*v	*v	*	*	*	*	*
=327	=327	=327	=327	=327	=327
(>8c/L	.	2.dd/]	(8a\L	.	.
8d/J	.	.	8b\J	.	.
4G/)	.	.	4e\)	.	.
4A'/	.	.	4f#'\	.	.
=328	=328	=328	=328	=328	=328
*^	*	*	*	*	*
(8B/L	4D\	.	[2.dd/	(8g\L	.	.
8c/J	.	.	.	8a\J	.	.
4d/)	2ryy	.	.	4b\)	.	.
8e/	.	.	.	4cc\	.	.
8r	.	.	.	.	.	.
*v	*v	*	*	*	*	*
=329	=329	=329	=329	=329	=329
(>4d/	.	2.dd/]	(4b\	.	.
4G/)	.	.	4e\)	.	.
4A/	.	.	4f#\	.	.
*	*	*v	*v	*	*
!!LO:LB:g=original	!	!	!	!
=330||	=330||	=330||	=330||	=330||
*M2/4	*	*M2/4	*	*
!	!	!LO:TX:a:t=Krakowiak. Finał Akt II.	!	!
!	!	!LO:TX:a:B:t=Allegro vivo.	!	!
!	!	!	!	!LO:DY:b
8GG/L	.	(16g/LL 16b	.	f
.	.	16a/JJ 16cc	.	.
8D/	.	4b\) 4dd	.	.
8GG/	.	.	.	.
8D/J	.	8g'/ 8b	.	.
=331	=331	=331	=331	=331
8GG/L	.	8a'\ 8cc	.	.
8D/	.	(4cc\ 4ee	.	.
8GG/	.	.	.	.
8D/J	.	16a/LL 16cc	.	.
.	.	16g/JJ) 16b	.	.
=332	=332	=332	=332	=332
8GG/L	.	(16f#/LL 16a	.	.
.	.	16e/ 16g	.	.
8D/	.	16d/ 16f#	.	.
.	.	16e/JJ 16g	.	.
8GG/	.	8f#\L) 8a	.	.
8D/J	.	8cc'\J 8ee	.	.
=333	=333	=333	=333	=333
8GG/L	.	8b\ 8dd	.	.
8D/	.	4g/ 4b	.	.
8GG/	.	.	.	.
8D/J	.	8b'\ 8dd	.	.
=334	=334	=334	=334	=334
*	*	*^	*	*
8GG/L	.	8gg/	8b\	.	.
8D/	.	(4gg/	[4.b\	.	.
8GG/	.	.	.	.	.
8D#X/J	.	8ff#/)	.	.	.
=335	=335	=335	=335	=335	=335
8CC/L	.	16ff#/LL	8b\]	.	.
.	.	16ee/	.	.	.
8C/	.	16dd#X/	4a\	.	.
.	.	16ff#/JJ	.	.	.
8CC/	.	[4ee/	.	.	.
8C/J	.	.	8g\	.	.
*	*	*v	*v	*	*
!!LO:LB:g=original	!	!	!	!
=336	=336	=336	=336	=336
8DD/L	.	8g\L 8ee]	.	.
8D/	.	(16f#\L 16a	.	.
.	.	16g\JJ 16b	.	.
8DD/	.	8a\L) 8cc	.	.
8D/J	.	8cc\J 8ee	.	.
=337	=337	=337	=337	=337
8GG/L	.	(16a#X\LL 16cc#X	.	.
.	.	16cc#\JJ 16ee	.	.
8D/	.	4b\) 4dd	.	.
8GG/	.	.	.	.
8D/J	.	8g/ 8b	.	.
=338	=338	=338	=338	=338
8GG/L	.	[4b\ [<4dd 4bb	.	.
8D/	.	.	.	.
8GG/	.	16b\LL] 16dd] 16bb	.	.
.	.	16aa\	.	.
8D#X/J	.	16gg\	.	.
.	.	16ff#\JJ	.	.
=339	=339	=339	=339	=339
8C/	.	16ee\LL	.	.
.	.	16dd\	.	.
8r	.	16cc\	.	.
.	.	16b\JJ	.	.
8C\ 8E 8A	.	16a/LL	.	.
.	.	16g/	.	.
8r	.	16f#/	.	.
.	.	16e/JJ	.	.
=340	=340	=340	=340	=340
8D\L	.	(16f#\LL 16a	.	.
.	.	16g\JJ 16b	.	.
8d\	.	4a\) 4cc	.	.
8D\	.	.	.	.
!	!	!LO:N:vis=4	!	!LO:HP:b
8c\J	.	8g\ 8ee	.	>
=341	=341	=341	=341	=341
8D\L	.	8f#/ 8dd	.	.
8c\	.	4e/	.	.
8D\	.	.	.	.
8B\J	.	8c/ 8f#	.	]]
=342	=342	=342	=342	=342
*	*	*^	*	*
!	!	!	!	!	!LO:DY:b
8GG/L	.	8d/L	4B\	.	p
!	!	!LO:TX:b:i:t=poco	!	!	!
8D/	.	([8g/J	.	.	.
8GG/	.	8g/L]	4c\	.	.
!	!	!LO:TX:b:i:t=piu	!	!	!
8D/J	.	16f#/L	.	.	.
.	.	16e/JJ)	.	.	.
=343	=343	=343	=343	=343	=343
8GG/L	.	(16d/LL	2B\	.	.
!	!	!LO:TX:b:i:t=vivo	!	!	!
.	.	16e/	.	.	.
8D/	.	16f#/	.	.	.
.	.	16g/JJ	.	.	.
8GG/	.	16d/LL	.	.	.
!	!	!LO:TX:b:i:t=e	!	!	!
.	.	16e/	.	.	.
8D/J	.	16f#/	.	.	.
!	!	!LO:TX:b:i:t=sempre	!	!	!
.	.	16g/JJ)	.	.	.
=344	=344	=344	=344	=344	=344
8GG/L	.	8e/	(4c\	.	.
!	!	!	!	!	!LO:HP:b:t=crescendo
8D/	.	4a/	.	.	<
8GG/	.	.	4d\	.	.
8D/J	.	(16g/LL	.	.	.
.	.	16f#/JJ	.	.	.
=345	=345	=345	=345	=345	=345
8GG/L	.	16e/LL	4c\)	.	.
.	.	16g/	.	.	.
8D/	.	16f#/	.	.	.
.	.	16e/JJ	.	.	.
8GG/	.	16f#/LL	4ryy	.	.
.	.	16a/	.	.	.
8D/J	.	16b/	.	.	.
.	.	16cc/JJ)	.	.	.
=346	=346	=346	=346	=346	=346
8GG/L	.	8dd/	4b\	.	.
8D/	.	4gg/	.	.	.
8GG/	.	.	4cc\	.	.
8D/J	.	(16ff#/LL	.	.	.
.	.	16ee/JJ	.	.	.
!	!	!	!	!	!
=347	=347	=347	=347	=347	=347
8GG/L	.	16dd/LL	2b\	.	.
.	.	16ee/	.	.	.
8D/	.	16ff#/	.	.	.
.	.	16gg/JJ	.	.	.
8GG/	.	16dd/LL	.	.	.
.	.	16ee/	.	.	.
8D/J	.	16ff#/	.	.	.
.	.	16gg/JJ)	.	.	.
=348	=348	=348	=348	=348	=348
8GG/L	.	8ee/	4cc\	.	.
8D/	.	(4aa/	.	.	.
8GG/	.	.	4dd\	.	.
8D/J	.	16gg/LL	.	.	.
.	.	16ff#/JJ)	.	.	.
=349	=349	=349	=349	=349	=349
8GG/L	.	(16ee/LL	4cc\	.	.
.	.	16gg/	.	.	.
8D/	.	16ff#/	.	.	.
.	.	16ee/JJ	.	.	.
8GG/	.	16ff#/LL	4ryy	.	.
.	.	16aa/	.	.	.
8D/J	.	16bb/	.	.	.
.	.	16ccc/JJ)	.	.	.
=350	=350	=350	=350	=350	=350
8GG/L	.	4.ddd/	4r	.	.
8D/	.	.	.	.	.
8GG/	.	.	[4dd\	.	.
8D/J	.	16bb/LL	.	.	.
.	.	16aa/JJ	.	.	.
*	*	*v	*v	*	*
=351	=351	=351	=351	=351
8GG/L	.	16dd\LL] 16gg	.	.
.	.	16aa\	.	.
8D/	.	16bb\	.	.
.	.	16gg\JJ	.	.
8GG/	.	16aa\LL	.	.
.	.	16bb\	.	.
8D/J	.	16ccc#X\	.	.
.	.	16aa\JJ	.	.
!!LO:LB:g=original	!	!	!	!
=352	=352	=352	=352	=352
*	*	*^	*	*
8GG/L	.	4.ddd/	4r	.	.
8D/	.	.	.	.	.
8GG/	.	.	[4dd\	.	.
8D/J	.	(16bb/LL	.	.	.
.	.	16aa/JJ	.	.	.
=353	=353	=353	=353	=353	=353
8GG/L	.	16gg/LL	4dd\]	.	.
.	.	16aa/	.	.	.
8D/	.	16bb/	.	.	.
.	.	16gg/JJ	.	.	.
8GG/	.	16aa/LL	4ryy	.	.
.	.	16bb/	.	.	.
8D/J	.	16ccc#X/	.	.	.
.	.	16aa/JJ)	.	.	.
=354	=354	=354	=354	=354	=354
8GG/L	.	8ddd/	4r	.	.
8D'/	.	(4ggg/	.	.	.
8BB'/ 8G	.	.	[4bb\	.	.
8D'/J 8A	.	16fff#/LL	.	.	.
.	.	16eee/JJ	.	.	.
*	*	*v	*v	*	*
=355	=355	=355	=355	=355
8G\ 8B	.	16bb\LL]) 16ddd	.	.
.	.	(16eee\	.	.
8r	.	16ccc#X\	.	.
.	.	16bb\JJ	.	.
8E\ 8cn 8d	.	16aa\LL	.	.
.	.	16ddd\	.	.
8r	.	16bb\	.	.
.	.	16aa\JJ	.	.
=356	=356	=356	=356	=356
*	*	*^	*	*
8G\L 8B 8d	.	8gg/)	4r	.	.
*clefG2	*	*	*	*	*
8d\	.	(4gg/	.	.	.
8B\ 8g	.	.	[4b\	.	.
8d\J 8a	.	16ff#/LL	.	.	.
.	.	16ee/JJ)	.	.	.
!!LO:LB:g=original	!	!	!	!	!
=357	=357	=357	=357	=357	=357
8g/ 8b	.	16dd/LL	8b\]	.	.
.	.	16ee/	.	.	.
8r	.	16cc#X/	4.ryy	.	.
.	.	16b/JJ	.	.	.
8G/ 8c 8d	.	16a/LL	.	.	.
.	.	16dd/	.	.	.
8r	.	16b/	.	.	.
.	.	16a/JJ	.	.	.
*	*	*v	*v	*	*
*clefF4	*	*	*	*
=358	=358	=358	=358	=358
8GG/L 8BB 8D	.	8g/	.	.
8GG/J 8BB 8D	.	8r	.	.
!	!	!	!	!LO:DY:b
8r	.	16A/LL	.	p
.	.	16B/	.	.
8GG/ 8AA 8E	.	16c#X/	.	.
.	.	16A/JJ	.	.
=359	=359	=359	=359	=359
!	!	!	!	!LO:HP:b:t=crescendo
8GG/L 8BB 8D	.	16B/LL	.	<
.	.	16c#X/	.	.
8GG/J 8BB 8D	.	16d/	.	.
.	.	16B/JJ	.	.
8r	.	16c#/LL	.	.
.	.	16d/	.	.
8GG/ 8AA 8E	.	16e/	.	.
!	!	!LO:TX:b:i:t=e	!	!
.	.	16c#/JJ	.	.
=360	=360	=360	=360	=360
8GG/L 8BB 8D	.	8d/	.	.
!	!	!LO:TX:b:i:t=stringendo	!	!
8GG/J 8BB 8D	.	8r	.	.
8r	.	16a\LL	.	.
.	.	16b\	.	.
8G\ 8A 8e	.	16cc#X\	.	.
.	.	16a\JJ	.	.
=361	=361	=361	=361	=361
8G\L 8B 8d	.	16b\LL	.	.
.	.	16cc#X\	.	.
8G\J 8B 8d	.	16dd\	.	.
.	.	16b\JJ	.	.
8r	.	16cc#\LL	.	.
.	.	16dd\	.	.
8G\ 8A 8e	.	16ee\	.	.
.	.	16cc#\JJ	.	.
!!LO:LB:g=original	!	!	!	!
=362	=362	=362	=362	=362
8G\L 8B 8d	.	8dd\	.	.
8G\J 8B 8d	.	8r	.	.
8r	.	16aa\LL	.	.
.	.	16bb\	.	.
8G\ 8A 8e	.	16ccc#X\	.	.
.	.	16aa\JJ	.	.
=363	=363	=363	=363	=363
8G\L 8B 8d	.	16bb\LL	.	.
.	.	16ccc#X\	.	.
8G\J 8B 8d	.	16ddd\	.	.
.	.	16bb\JJ	.	.
8r	.	16ccc#\LL	.	.
.	.	16ddd\	.	.
8G\ 8A 8e	.	16eee\	.	.
.	.	16ccc#\JJ	.	.
=364	=364	=364	=364	=364
8G\ 8B 8d	.	8ddd\L	.	.
!	!	!	!	!LO:DY:b
8r	.	16ddd\L	.	ff
.	.	16eee\JJ	.	.
8G\L 8B 8d	.	16ggg^\LL	.	.
.	.	16eee\	.	.
8G\J 8c 8d	.	16ddd\	.	.
.	.	16fff#\JJ	.	.
=365	=365	=365	=365	=365
8G\L 8B 8d	.	(16ggg^\LL	.	.
.	.	16eee\)	.	.
8G\J 8c 8d	.	16ddd\	.	.
.	.	16fff#\JJ	.	.
8G\L 8B 8d	.	(16ggg^\LL	.	.
.	.	16eee\)	.	.
8G\J 8c 8d	.	16ddd\	.	.
.	.	16fff#\JJ	.	.
=366	=366	=366	=366	=366
8G\ 8B 8d	.	8ggg\	.	.
8r	.	8r	.	.
4r	.	4r	.	.
=367	=367	=367	=367	=367
4GG/ 4G	.	4b\ 4dd 4gg 4bb	.	.
8.r	.	8.r	.	.
16GGG/ 16GG	.	16B/ 16d 16g	.	.
=368	=368	=368	=368	=368
2GGG/ 2GG	.	2B/ 2d 2g	.	.
==	==	==	==	==
*-	*-	*-	*-	*-
!!!system-decoration: {(s1,s2)}
!!!RDF**kern: > = above
!!!RDF**kern: < = below
!!!ENC: Filip Voros
!!!END: 2022-03-17
!!!ENC: Jan Barakat
!!!END: 2022-03-21
